(.../EAGLE-7.2.0/ulp/pcb-gcode/pcb-gcode.ulp)
(Copyright 2005 - 2012 by John Johnson)
(See readme.txt for licensing terms.)
(This file generated from the board:)
(.../EAGLE-7.2.0/projects/max1000/max1k.brd)
(Current profile is .../pcb-gcode/profiles/generic.pp  )
(This file generated 2020/07/30 18:35:15)
(Settings from pcb-machine.h)
(spindle on time = 2.0000)
(spindle speed = 1000.0000)
(tool change at 0.0000 0.0000 5.0000 )
(feed rate xy = F0.00  )
(feed rate z  = F254.00 )
(Z Axis Settings)
(  High     Up        Down     Drill)
(5.0000 	1.0000 	-0.0800 	-1.8000 )
(Settings from pcb-defaults.h)
(isolate min = 0.0000)
(isolate max = 0.2000)
(isolate step = 0.2000)
(Generated top outlines, top drill, )
(Unit of measure: mm)
( Tool|       Size       |  Min Sub |  Max Sub |   Count )
( T01  0.900mm 0.0354in 0.0000in 0.0000in )
( T02  1.016mm 0.0400in 0.0000in 0.0000in )
( T03  1.190mm 0.0469in 0.0000in 0.0000in )
( T04  2.309mm 0.0909in 0.0000in 0.0000in )
( T05  3.050mm 0.1201in 0.0000in 0.0000in )
(Metric Mode)
G21
(Absolute Coordinates)
G90
S1000
G00 Z5.0000 
G00 X0.0000 Y0.0000 
M03
G04 P2.000000
M05
M06 T01  ; 0.9000 
G00 Z1.0000 
M03
G04 P2.000000
G00 Z1.000000
G00 X-23.2700 Y-31.4100 
G01 Z-1.8000 F254.00 
G01 Z1.000000
(R1.0000  P1.000000)
G00 X-23.2700 Y-33.9100 
G01 Z-1.800000
G01 Z1.000000
G00 X-25.3700 Y-33.9100 
G01 Z-1.800000
G01 Z1.000000
G00 X-27.9700 Y-33.9100 
G01 Z-1.800000
G01 Z1.000000
G00 X-30.0700 Y-33.9100 
G01 Z-1.800000
G01 Z1.000000
G00 X-30.0700 Y-31.4100 
G01 Z-1.800000
G01 Z1.000000
G00 X-44.8600 Y-31.4100 
G01 Z-1.800000
G01 Z1.000000
G00 X-44.8600 Y-33.9100 
G01 Z-1.800000
G01 Z1.000000
G00 X-46.9600 Y-33.9100 
G01 Z-1.800000
G01 Z1.000000
G00 X-49.5600 Y-33.9100 
G01 Z-1.800000
G01 Z1.000000
G00 X-51.6600 Y-33.9100 
G01 Z-1.800000
G01 Z1.000000
G00 X-51.6600 Y-31.4100 
G01 Z-1.800000
G01 Z1.000000
G00 X-57.1500 Y-17.6550 
G01 Z-1.800000
G01 Z1.000000
G00 X-57.1500 Y-9.6550 
G01 Z-1.800000
G01 Z1.000000
M05
G00 Z5.0000 
G00 X0.0000 Y0.0000 
M06 T02  ; 1.0160 
G00 Z1.0000 
M03
G04 P2.000000
G00 Z1.000000
G00 X-19.0500 Y-3.8100 
G01 Z-1.8000 F254.00 
G01 Z1.000000
(R1.0000  P1.000000)
G00 X-21.5900 Y-3.8100 
G01 Z-1.800000
G01 Z1.000000
G00 X-24.1300 Y-3.8100 
G01 Z-1.800000
G01 Z1.000000
G00 X-26.6700 Y-3.8100 
G01 Z-1.800000
G01 Z1.000000
G00 X-29.2100 Y-3.8100 
G01 Z-1.800000
G01 Z1.000000
G00 X-31.7500 Y-3.8100 
G01 Z-1.800000
G01 Z1.000000
G00 X-34.2900 Y-3.8100 
G01 Z-1.800000
G01 Z1.000000
G00 X-36.8300 Y-3.8100 
G01 Z-1.800000
G01 Z1.000000
G00 X-39.3700 Y-3.8100 
G01 Z-1.800000
G01 Z1.000000
G00 X-41.9100 Y-3.8100 
G01 Z-1.800000
G01 Z1.000000
G00 X-44.4500 Y-3.8100 
G01 Z-1.800000
G01 Z1.000000
G00 X-46.9900 Y-3.8100 
G01 Z-1.800000
G01 Z1.000000
G00 X-49.5300 Y-3.8100 
G01 Z-1.800000
G01 Z1.000000
G00 X-52.0700 Y-3.8100 
G01 Z-1.800000
G01 Z1.000000
G00 X-52.0700 Y-24.1300 
G01 Z-1.800000
G01 Z1.000000
G00 X-49.5300 Y-24.1300 
G01 Z-1.800000
G01 Z1.000000
G00 X-46.9900 Y-24.1300 
G01 Z-1.800000
G01 Z1.000000
G00 X-44.4500 Y-24.1300 
G01 Z-1.800000
G01 Z1.000000
G00 X-41.9100 Y-24.1300 
G01 Z-1.800000
G01 Z1.000000
G00 X-39.3700 Y-24.1300 
G01 Z-1.800000
G01 Z1.000000
G00 X-36.8300 Y-24.1300 
G01 Z-1.800000
G01 Z1.000000
G00 X-34.2900 Y-24.1300 
G01 Z-1.800000
G01 Z1.000000
G00 X-31.7500 Y-24.1300 
G01 Z-1.800000
G01 Z1.000000
G00 X-29.2100 Y-24.1300 
G01 Z-1.800000
G01 Z1.000000
G00 X-26.6700 Y-24.1300 
G01 Z-1.800000
G01 Z1.000000
G00 X-24.1300 Y-24.1300 
G01 Z-1.800000
G01 Z1.000000
G00 X-21.5900 Y-24.1300 
G01 Z-1.800000
G01 Z1.000000
G00 X-19.0500 Y-24.1300 
G01 Z-1.800000
G01 Z1.000000
M05
G00 Z5.0000 
G00 X0.0000 Y0.0000 
M06 T03  ; 1.1900 
G00 Z1.0000 
M03
G04 P2.000000
G00 Z1.000000
G00 X-7.6200 Y-16.2400 
G01 Z-1.8000 F254.00 
G01 Z1.000000
(R1.0000  P1.000000)
G00 X-7.6200 Y-18.5300 
G01 Z-1.800000
G01 Z1.000000
G00 X-7.6200 Y-20.8200 
G01 Z-1.800000
G01 Z1.000000
G00 X-7.6200 Y-23.1100 
G01 Z-1.800000
G01 Z1.000000
G00 X-7.6200 Y-25.4000 
G01 Z-1.800000
G01 Z1.000000
G00 X-9.6200 Y-24.2550 
G01 Z-1.800000
G01 Z1.000000
G00 X-9.6200 Y-21.9650 
G01 Z-1.800000
G01 Z1.000000
G00 X-9.6200 Y-19.6750 
G01 Z-1.800000
G01 Z1.000000
G00 X-9.6200 Y-17.3850 
G01 Z-1.800000
G01 Z1.000000
G00 X-11.6200 Y-18.5300 
G01 Z-1.800000
G01 Z1.000000
G00 X-11.6200 Y-20.8200 
G01 Z-1.800000
G01 Z1.000000
G00 X-11.6200 Y-23.1100 
G01 Z-1.800000
G01 Z1.000000
G00 X-11.6200 Y-25.4000 
G01 Z-1.800000
G01 Z1.000000
G00 X-9.6200 Y-26.5450 
G01 Z-1.800000
G01 Z1.000000
G00 X-11.6200 Y-16.2400 
G01 Z-1.800000
G01 Z1.000000
M05
G00 Z5.0000 
G00 X0.0000 Y0.0000 
M06 T04  ; 2.3087 
G00 Z1.0000 
M03
G04 P2.000000
G00 Z1.000000
G00 X-19.9200 Y-36.9100 
G01 Z-1.8000 F254.00 
G01 Z1.000000
(R1.0000  P1.000000)
G00 X-26.6700 Y-37.7100 
G01 Z-1.800000
G01 Z1.000000
G00 X-33.4200 Y-36.9100 
G01 Z-1.800000
G01 Z1.000000
G00 X-41.5100 Y-36.9100 
G01 Z-1.800000
G01 Z1.000000
G00 X-48.2600 Y-37.7100 
G01 Z-1.800000
G01 Z1.000000
G00 X-55.0100 Y-36.9100 
G01 Z-1.800000
G01 Z1.000000
M05
G00 Z5.0000 
G00 X0.0000 Y0.0000 
M06 T05  ; 3.0500 
G00 Z1.0000 
M03
G04 P2.000000
G00 Z1.000000
G00 X-9.6200 Y-8.5800 
G01 Z-1.8000 F254.00 
G01 Z1.000000
(R1.0000  P1.000000)
G00 X-9.6200 Y-33.5700 
G01 Z-1.800000
G01 Z1.000000
T01 
G00 Z5.0000 
M05
M02
