(.../EAGLE-7.2.0/ulp/pcb-gcode/pcb-gcode.ulp)
(Copyright 2005 - 2012 by John Johnson)
(See readme.txt for licensing terms.)
(This file generated from the board:)
(.../EAGLE-7.2.0/projects/max1000/max1k.brd)
(Current profile is .../pcb-gcode/profiles/generic.pp  )
(This file generated 2020/07/30 18:35:14)
(Settings from pcb-machine.h)
(spindle on time = 2.0000)
(  Tool Size)
(0.2000 )
(spindle speed = 1000.0000)
(tool change at 0.0000 0.0000 5.0000 )
(feed rate xy = F100.00 )
(feed rate z  = F50.00 )
(Z Axis Settings)
(  High     Up        Down     Drill)
(5.0000 	1.0000 	-0.0800 	-1.8000 )
(Settings from pcb-defaults.h)
(isolate min = 0.0000)
(isolate max = 0.2000)
(isolate step = 0.2000)
(Generated top outlines, top drill, )
(Unit of measure: mm)
(Metric Mode)
G21
(Absolute Coordinates)
G90
S1000
G00 Z5.0000 
G00 X0.0000 Y0.0000 
M03
G04 P2.000000
G00 Z1.0000 
G00 X0.0199 Y-1.1700 
G01 Z-0.0800 F50.00 
G01 X-2.2382 Y-1.1700 F100.00 
G01 X-2.3506 Y-1.0949 
G01 X-2.4844 Y-1.0395 
G01 X-2.6264 Y-1.0112 
G01 X-25.9486 Y-1.0112 
G01 X-26.0906 Y-1.0395 
G01 X-26.2244 Y-1.0949 
G01 X-26.3448 Y-1.1753 
G01 X-26.4472 Y-1.2777 
G01 X-26.5276 Y-1.3981 
G01 X-26.5830 Y-1.5319 
G01 X-26.6112 Y-1.6739 
G01 X-26.6112 Y-1.8186 
G01 X-26.5830 Y-1.9606 
G01 X-26.5406 Y-2.0630 
G01 X-26.7467 Y-2.5987 
G01 X-27.8011 Y-2.5987 
G01 X-27.8379 Y-2.6140 
G01 X-27.8660 Y-2.6421 
G01 X-27.8812 Y-2.6789 
G01 X-27.8812 Y-4.9411 
G01 X-27.8660 Y-4.9779 
G01 X-27.8379 Y-5.0060 
G01 X-27.8011 Y-5.0212 
G01 X-27.6362 Y-5.0212 
G01 X-29.7266 Y-10.9236 
G01 X-44.9929 Y-10.9236 
G01 X-45.1000 Y-10.9523 
G01 X-45.1000 Y-10.9101 
G01 X-45.1152 Y-10.8734 
G01 X-45.1434 Y-10.8452 
G01 X-45.1801 Y-10.8300 
G01 X-47.4199 Y-10.8300 
G01 X-47.4566 Y-10.8452 
G01 X-47.4848 Y-10.8734 
G01 X-47.5000 Y-10.9101 
G01 X-47.5000 Y-11.8499 
G01 X-47.4848 Y-11.8866 
G01 X-47.4566 Y-11.9148 
G01 X-47.4199 Y-11.9300 
G01 X-45.1801 Y-11.9300 
G01 X-45.1434 Y-11.9148 
G01 X-45.1273 Y-11.8987 
G01 X-44.9929 Y-11.9364 
G01 X-29.3887 Y-11.9364 
G01 X-29.3420 Y-11.9401 
G01 X-29.3222 Y-11.9364 
G01 X-29.3021 Y-11.9364 
G01 X-29.2569 Y-11.9243 
G01 X-29.2109 Y-11.9158 
G01 X-29.1928 Y-11.9071 
G01 X-29.1733 Y-11.9019 
G01 X-29.1328 Y-11.8785 
G01 X-29.0906 Y-11.8584 
G01 X-29.0753 Y-11.8453 
G01 X-29.0578 Y-11.8352 
G01 X-29.0247 Y-11.8021 
G01 X-28.9892 Y-11.7718 
G01 X-28.9778 Y-11.7552 
G01 X-28.9635 Y-11.7409 
G01 X-28.9401 Y-11.7004 
G01 X-28.9137 Y-11.6619 
G01 X-28.9069 Y-11.6429 
G01 X-28.8969 Y-11.6255 
G01 X-28.8848 Y-11.5803 
G01 X-26.5618 Y-5.0212 
G01 X-25.5389 Y-5.0212 
G01 X-25.5021 Y-5.0060 
G01 X-25.4740 Y-4.9779 
G01 X-25.4587 Y-4.9411 
G01 X-25.4587 Y-2.6789 
G01 X-25.4740 Y-2.6421 
G01 X-25.5021 Y-2.6140 
G01 X-25.5389 Y-2.5987 
G01 X-25.6616 Y-2.5987 
G01 X-25.6164 Y-2.4812 
G01 X-15.9750 Y-2.4812 
G01 X-15.9750 Y-12.0849 
G01 X-15.9598 Y-12.1216 
G01 X-15.9316 Y-12.1498 
G01 X-15.8949 Y-12.1650 
G01 X-2.6400 Y-12.1650 
G01 X-2.6400 Y-31.0150 
G01 X-15.8949 Y-31.0150 
G01 X-15.9316 Y-31.0302 
G01 X-15.9598 Y-31.0584 
G01 X-15.9750 Y-31.0951 
G01 X-15.9750 Y-41.1750 
G01 X-46.2550 Y-41.1750 
G01 X-46.2550 Y-36.1751 
G01 X-46.2702 Y-36.1384 
G01 X-46.2984 Y-36.1102 
G01 X-46.3351 Y-36.0950 
G01 X-47.3943 Y-36.0950 
G01 X-47.4482 Y-36.0639 
G01 X-47.6700 Y-35.9720 
G01 X-47.9019 Y-35.9098 
G01 X-48.1400 Y-35.8785 
G01 X-48.3800 Y-35.8785 
G01 X-48.6181 Y-35.9098 
G01 X-48.8500 Y-35.9720 
G01 X-49.0718 Y-36.0639 
G01 X-49.1257 Y-36.0950 
G01 X-51.1836 Y-36.0950 
G01 X-51.1799 Y-35.8283 
G01 X-46.9233 Y-35.8283 
G01 X-46.7945 Y-35.7938 
G01 X-46.6791 Y-35.7271 
G01 X-46.5848 Y-35.6328 
G01 X-46.5181 Y-35.5173 
G01 X-46.4836 Y-35.3885 
G01 X-46.4836 Y-34.7075 
G01 X-46.0176 Y-34.7075 
G01 X-45.9809 Y-34.6923 
G01 X-45.9527 Y-34.6641 
G01 X-45.9375 Y-34.6274 
G01 X-45.9375 Y-32.8414 
G01 X-45.9527 Y-32.8046 
G01 X-45.9809 Y-32.7765 
G01 X-46.0176 Y-32.7612 
G01 X-46.4836 Y-32.7612 
G01 X-46.4836 Y-30.6898 
G01 X-46.1452 Y-30.3514 
G01 X-35.1348 Y-30.3514 
G01 X-31.2150 Y-34.2712 
G01 X-31.2150 Y-34.6274 
G01 X-31.1998 Y-34.6641 
G01 X-31.1716 Y-34.6923 
G01 X-31.1349 Y-34.7075 
G01 X-30.7697 Y-34.7075 
G01 X-30.7415 Y-34.7238 
G01 X-30.6932 Y-34.7541 
G01 X-30.6755 Y-34.7619 
G01 X-30.6203 Y-34.7767 
G01 X-30.5658 Y-34.7935 
G01 X-30.5467 Y-34.7964 
G01 X-30.4896 Y-34.7964 
G01 X-30.4326 Y-34.7986 
G01 X-30.4133 Y-34.7964 
G01 X-30.3582 Y-34.7816 
G01 X-30.3026 Y-34.7690 
G01 X-30.2845 Y-34.7619 
G01 X-30.2555 Y-34.7451 
G01 X-29.9272 Y-35.4904 
G01 X-29.9200 Y-35.5173 
G01 X-29.9004 Y-35.5512 
G01 X-29.8847 Y-35.5870 
G01 X-29.8673 Y-35.6087 
G01 X-29.8533 Y-35.6328 
G01 X-29.8257 Y-35.6605 
G01 X-29.8012 Y-35.6910 
G01 X-29.7787 Y-35.7074 
G01 X-29.7591 Y-35.7271 
G01 X-29.7252 Y-35.7467 
G01 X-29.6936 Y-35.7698 
G01 X-29.6677 Y-35.7798 
G01 X-29.6436 Y-35.7938 
G01 X-29.6058 Y-35.8039 
G01 X-29.5693 Y-35.8180 
G01 X-29.5417 Y-35.8211 
G01 X-29.5148 Y-35.8283 
G01 X-29.4757 Y-35.8283 
G01 X-29.4368 Y-35.8325 
G01 X-29.4093 Y-35.8283 
G01 X-25.9883 Y-35.8283 
G01 X-25.9546 Y-35.8326 
G01 X-25.9219 Y-35.8283 
G01 X-25.8890 Y-35.8283 
G01 X-25.8561 Y-35.8195 
G01 X-25.8224 Y-35.8150 
G01 X-25.7920 Y-35.8023 
G01 X-25.7602 Y-35.7938 
G01 X-25.7307 Y-35.7768 
G01 X-25.6993 Y-35.7637 
G01 X-25.6732 Y-35.7436 
G01 X-25.6447 Y-35.7271 
G01 X-25.6206 Y-35.7030 
G01 X-25.5937 Y-35.6823 
G01 X-25.5737 Y-35.6561 
G01 X-25.5504 Y-35.6328 
G01 X-25.5334 Y-35.6033 
G01 X-25.5128 Y-35.5763 
G01 X-25.5002 Y-35.5459 
G01 X-25.4837 Y-35.5173 
G01 X-25.4749 Y-35.4845 
G01 X-25.1550 Y-34.7075 
G01 X-24.4276 Y-34.7075 
G01 X-24.3909 Y-34.6923 
G01 X-24.3627 Y-34.6641 
G01 X-24.3475 Y-34.6274 
G01 X-24.3475 Y-32.8414 
G01 X-24.3627 Y-32.8046 
G01 X-24.3909 Y-32.7765 
G01 X-24.4276 Y-32.7612 
G01 X-24.8936 Y-32.7612 
G01 X-24.8936 Y-25.9683 
G01 X-24.9281 Y-25.8395 
G01 X-24.9948 Y-25.7241 
G01 X-25.0891 Y-25.6298 
G01 X-25.1476 Y-25.5960 
G01 X-25.1476 Y-22.9022 
G01 X-23.6824 Y-22.0964 
G01 X-18.3599 Y-22.0964 
G01 X-14.7145 Y-27.2607 
G01 X-14.6927 Y-27.2984 
G01 X-14.6762 Y-27.3149 
G01 X-14.6628 Y-27.3340 
G01 X-14.6293 Y-27.3619 
G01 X-14.5984 Y-27.3927 
G01 X-14.5782 Y-27.4044 
G01 X-14.5603 Y-27.4193 
G01 X-14.5207 Y-27.4376 
G01 X-14.4830 Y-27.4594 
G01 X-14.4604 Y-27.4654 
G01 X-14.4392 Y-27.4752 
G01 X-14.3963 Y-27.4826 
G01 X-14.3542 Y-27.4939 
G01 X-14.3308 Y-27.4939 
G01 X-14.3078 Y-27.4979 
G01 X-14.2644 Y-27.4939 
G01 X-10.4895 Y-27.4939 
G01 X-10.4348 Y-27.4965 
G01 X-10.4230 Y-27.4939 
G01 X-10.4108 Y-27.4939 
G01 X-10.3580 Y-27.4797 
G01 X-10.3045 Y-27.4681 
G01 X-10.2937 Y-27.4625 
G01 X-10.2820 Y-27.4594 
G01 X-10.2347 Y-27.4320 
G01 X-10.1468 Y-27.3867 
G01 X-10.0901 Y-27.4245 
G01 X-9.9095 Y-27.4994 
G01 X-9.7178 Y-27.5375 
G01 X-9.5222 Y-27.5375 
G01 X-9.3305 Y-27.4994 
G01 X-9.1499 Y-27.4245 
G01 X-8.9873 Y-27.3159 
G01 X-8.9176 Y-27.2462 
G01 X-8.8701 Y-27.2462 
G01 X-8.8334 Y-27.2310 
G01 X-8.8052 Y-27.2029 
G01 X-8.7900 Y-27.1661 
G01 X-8.7900 Y-27.0893 
G01 X-8.7405 Y-27.0151 
G01 X-8.6656 Y-26.8345 
G01 X-8.6275 Y-26.6428 
G01 X-8.6275 Y-26.4472 
G01 X-8.6656 Y-26.2555 
G01 X-8.7405 Y-26.0749 
G01 X-8.7900 Y-26.0007 
G01 X-8.7900 Y-24.7993 
G01 X-8.7405 Y-24.7251 
G01 X-8.6656 Y-24.5445 
G01 X-8.6275 Y-24.3528 
G01 X-8.6275 Y-24.1572 
G01 X-8.6656 Y-23.9655 
G01 X-8.7405 Y-23.7849 
G01 X-8.7900 Y-23.7107 
G01 X-8.7900 Y-22.5093 
G01 X-8.7405 Y-22.4351 
G01 X-8.6656 Y-22.2545 
G01 X-8.6275 Y-22.0628 
G01 X-8.6275 Y-21.8672 
G01 X-8.6656 Y-21.6755 
G01 X-8.7405 Y-21.4949 
G01 X-8.7900 Y-21.4207 
G01 X-8.7900 Y-20.2193 
G01 X-8.7405 Y-20.1451 
G01 X-8.6656 Y-19.9645 
G01 X-8.6275 Y-19.7728 
G01 X-8.6275 Y-19.5772 
G01 X-8.6656 Y-19.3855 
G01 X-8.7405 Y-19.2049 
G01 X-8.7900 Y-19.1307 
G01 X-8.7900 Y-17.9293 
G01 X-8.7405 Y-17.8551 
G01 X-8.6656 Y-17.6745 
G01 X-8.6275 Y-17.4828 
G01 X-8.6275 Y-17.2872 
G01 X-8.6656 Y-17.0955 
G01 X-8.7405 Y-16.9149 
G01 X-8.7900 Y-16.8407 
G01 X-8.7900 Y-16.3314 
G01 X-8.8052 Y-16.2946 
G01 X-8.8334 Y-16.2665 
G01 X-8.8701 Y-16.2512 
G01 X-9.9527 Y-16.2512 
G01 X-10.1612 Y-16.1123 
G01 X-10.1787 Y-16.0957 
G01 X-10.2164 Y-16.0754 
G01 X-10.2521 Y-16.0517 
G01 X-10.2749 Y-16.0439 
G01 X-10.2962 Y-16.0325 
G01 X-10.3378 Y-16.0227 
G01 X-10.3784 Y-16.0089 
G01 X-10.4024 Y-16.0074 
G01 X-10.6681 Y-15.9446 
G01 X-10.7405 Y-15.7699 
G01 X-10.8491 Y-15.6073 
G01 X-10.9873 Y-15.4691 
G01 X-11.1499 Y-15.3605 
G01 X-11.3305 Y-15.2856 
G01 X-11.5222 Y-15.2475 
G01 X-11.7178 Y-15.2475 
G01 X-11.9095 Y-15.2856 
G01 X-12.0901 Y-15.3605 
G01 X-12.2527 Y-15.4691 
G01 X-12.3909 Y-15.6073 
G01 X-12.4995 Y-15.7699 
G01 X-12.5744 Y-15.9505 
G01 X-12.6125 Y-16.1422 
G01 X-12.6125 Y-16.3378 
G01 X-12.5744 Y-16.5295 
G01 X-12.4995 Y-16.7101 
G01 X-12.3909 Y-16.8727 
G01 X-12.2527 Y-17.0109 
G01 X-12.0901 Y-17.1195 
G01 X-11.9095 Y-17.1944 
G01 X-11.7178 Y-17.2325 
G01 X-11.5222 Y-17.2325 
G01 X-11.3305 Y-17.1944 
G01 X-11.1499 Y-17.1195 
G01 X-10.9873 Y-17.0109 
G01 X-10.9056 Y-16.9292 
G01 X-10.6826 Y-16.9819 
G01 X-10.5609 Y-17.0630 
G01 X-10.5744 Y-17.0955 
G01 X-10.6125 Y-17.2872 
G01 X-10.6125 Y-17.4828 
G01 X-10.5744 Y-17.6745 
G01 X-10.4995 Y-17.8551 
G01 X-10.4187 Y-17.9760 
G01 X-10.4187 Y-19.0840 
G01 X-10.4995 Y-19.2049 
G01 X-10.5744 Y-19.3855 
G01 X-10.6125 Y-19.5772 
G01 X-10.6125 Y-19.7728 
G01 X-10.5744 Y-19.9645 
G01 X-10.4995 Y-20.1451 
G01 X-10.4187 Y-20.2660 
G01 X-10.4187 Y-21.3740 
G01 X-10.4995 Y-21.4949 
G01 X-10.5744 Y-21.6755 
G01 X-10.6125 Y-21.8672 
G01 X-10.6125 Y-22.0628 
G01 X-10.5744 Y-22.2545 
G01 X-10.4995 Y-22.4351 
G01 X-10.4187 Y-22.5560 
G01 X-10.4187 Y-23.6640 
G01 X-10.4995 Y-23.7849 
G01 X-10.5744 Y-23.9655 
G01 X-10.6125 Y-24.1572 
G01 X-10.6125 Y-24.3528 
G01 X-10.5744 Y-24.5445 
G01 X-10.4995 Y-24.7251 
G01 X-10.4187 Y-24.8460 
G01 X-10.4187 Y-25.9540 
G01 X-10.4995 Y-26.0749 
G01 X-10.5744 Y-26.2555 
G01 X-10.6125 Y-26.4472 
G01 X-10.6125 Y-26.4811 
G01 X-14.0251 Y-26.4811 
G01 X-17.6705 Y-21.3168 
G01 X-17.6923 Y-21.2791 
G01 X-17.7088 Y-21.2626 
G01 X-17.7222 Y-21.2435 
G01 X-17.7557 Y-21.2156 
G01 X-17.7866 Y-21.1848 
G01 X-17.8068 Y-21.1731 
G01 X-17.8247 Y-21.1582 
G01 X-17.8643 Y-21.1399 
G01 X-17.9020 Y-21.1181 
G01 X-17.9246 Y-21.1121 
G01 X-17.9458 Y-21.1023 
G01 X-17.9887 Y-21.0949 
G01 X-18.0308 Y-21.0836 
G01 X-18.0542 Y-21.0836 
G01 X-18.0772 Y-21.0796 
G01 X-18.1206 Y-21.0836 
G01 X-23.8073 Y-21.0836 
G01 X-23.8686 Y-21.0823 
G01 X-23.8792 Y-21.0836 
G01 X-23.9385 Y-21.0995 
G01 X-23.9981 Y-21.1142 
G01 X-24.0612 Y-21.1489 
G01 X-25.7025 Y-22.0515 
G01 X-25.7987 Y-22.1438 
G01 X-25.8677 Y-22.2579 
G01 X-25.9049 Y-22.3860 
G01 X-25.9077 Y-22.5193 
G01 X-25.8758 Y-22.6487 
G01 X-25.8116 Y-22.7656 
G01 X-25.7193 Y-22.8618 
G01 X-25.6524 Y-22.9023 
G01 X-25.6524 Y-25.5960 
G01 X-25.7109 Y-25.6298 
G01 X-25.8052 Y-25.7241 
G01 X-25.8719 Y-25.8395 
G01 X-25.9064 Y-25.9683 
G01 X-25.9064 Y-32.7612 
G01 X-26.3724 Y-32.7612 
G01 X-26.4091 Y-32.7765 
G01 X-26.4373 Y-32.8046 
G01 X-26.4525 Y-32.8414 
G01 X-26.4525 Y-34.6274 
G01 X-26.4373 Y-34.6641 
G01 X-26.4091 Y-34.6923 
G01 X-26.3724 Y-34.7075 
G01 X-26.2503 Y-34.7075 
G01 X-26.2948 Y-34.8155 
G01 X-29.1178 Y-34.8155 
G01 X-29.1692 Y-34.6988 
G01 X-29.1534 Y-34.6923 
G01 X-29.1252 Y-34.6641 
G01 X-29.1100 Y-34.6274 
G01 X-29.1100 Y-32.8414 
G01 X-29.1252 Y-32.8046 
G01 X-29.1534 Y-32.7765 
G01 X-29.1901 Y-32.7612 
G01 X-31.1349 Y-32.7612 
G01 X-31.1716 Y-32.7765 
G01 X-31.1998 Y-32.8046 
G01 X-31.2143 Y-32.8396 
G01 X-34.6141 Y-29.4398 
G01 X-34.7295 Y-29.3731 
G01 X-34.8583 Y-29.3386 
G01 X-46.4217 Y-29.3386 
G01 X-46.5505 Y-29.3731 
G01 X-46.6659 Y-29.4398 
G01 X-46.7602 Y-29.5341 
G01 X-47.3952 Y-30.1691 
G01 X-47.4619 Y-30.2845 
G01 X-47.4964 Y-30.4133 
G01 X-47.4964 Y-32.7612 
G01 X-47.9624 Y-32.7612 
G01 X-47.9991 Y-32.7765 
G01 X-48.0273 Y-32.8046 
G01 X-48.0425 Y-32.8414 
G01 X-48.0425 Y-34.6274 
G01 X-48.0273 Y-34.6641 
G01 X-47.9991 Y-34.6923 
G01 X-47.9624 Y-34.7075 
G01 X-47.4964 Y-34.7075 
G01 X-47.4964 Y-34.8155 
G01 X-51.0117 Y-34.8155 
G01 X-51.0450 Y-34.7075 
G01 X-50.7801 Y-34.7075 
G01 X-50.7434 Y-34.6923 
G01 X-50.7152 Y-34.6641 
G01 X-50.7000 Y-34.6274 
G01 X-50.7000 Y-32.8414 
G01 X-50.7152 Y-32.8046 
G01 X-50.7434 Y-32.7765 
G01 X-50.7801 Y-32.7612 
G01 X-52.7249 Y-32.7612 
G01 X-52.7616 Y-32.7765 
G01 X-52.7898 Y-32.8046 
G01 X-52.8050 Y-32.8414 
G01 X-52.8050 Y-34.6274 
G01 X-52.7898 Y-34.6641 
G01 X-52.7616 Y-34.6923 
G01 X-52.7249 Y-34.7075 
G01 X-52.1774 Y-34.7075 
G01 X-52.1965 Y-36.0950 
G01 X-53.2400 Y-36.0950 
G01 X-53.2400 Y-27.9201 
G01 X-53.2552 Y-27.8834 
G01 X-53.2834 Y-27.8552 
G01 X-53.3201 Y-27.8400 
G01 X-55.1450 Y-27.8400 
G01 X-55.1450 Y-22.3250 
G01 X-53.3201 Y-22.3250 
G01 X-53.2834 Y-22.3098 
G01 X-53.2552 Y-22.2816 
G01 X-53.2400 Y-22.2449 
G01 X-53.2400 Y-6.9651 
G01 X-53.2552 Y-6.9284 
G01 X-53.2834 Y-6.9002 
G01 X-53.3201 Y-6.8850 
G01 X-55.1450 Y-6.8850 
G01 X-55.1450 Y-0.6151 
G01 X-55.1602 Y-0.5784 
G01 X-55.1884 Y-0.5502 
G01 X-55.2251 Y-0.5350 
G01 X-58.4399 Y-0.5350 
G01 X-58.4766 Y-0.5502 
G01 X-58.5048 Y-0.5784 
G01 X-58.5200 Y-0.6151 
G01 X-58.5200 Y-43.1999 
G01 X-58.5048 Y-43.2366 
G01 X-58.4766 Y-43.2648 
G01 X-58.4399 Y-43.2800 
G01 X-0.6151 Y-43.2800 
G01 X-0.5784 Y-43.2648 
G01 X-0.5502 Y-43.2366 
G01 X-0.5350 Y-43.1999 
G01 X-0.5350 Y-42.0100 
G01 X0.0199 Y-42.0100 
G01 X0.0566 Y-41.9948 
G01 X0.0848 Y-41.9666 
G01 X0.1000 Y-41.9299 
G01 X0.1000 Y-1.2501 
G01 X0.0848 Y-1.2134 
G01 X0.0566 Y-1.1852 
G01 X0.0199 Y-1.1700 
G00 Z1.0000 
G00 X-3.5635 Y-16.0403 
G01 Z-0.0800 F50.00 
G01 X-6.2623 Y-13.3416 F100.00 
G01 X-6.3566 Y-13.2473 
G01 X-6.4720 Y-13.1806 
G01 X-6.6008 Y-13.1461 
G01 X-16.5798 Y-13.1461 
G01 X-18.5436 Y-10.6213 
G01 X-18.5436 Y-5.0212 
G01 X-17.9189 Y-5.0212 
G01 X-17.8821 Y-5.0060 
G01 X-17.8540 Y-4.9779 
G01 X-17.8388 Y-4.9411 
G01 X-17.8388 Y-2.6789 
G01 X-17.8540 Y-2.6421 
G01 X-17.8821 Y-2.6140 
G01 X-17.9189 Y-2.5987 
G01 X-20.1811 Y-2.5987 
G01 X-20.2179 Y-2.6140 
G01 X-20.2460 Y-2.6421 
G01 X-20.2612 Y-2.6789 
G01 X-20.2612 Y-4.9411 
G01 X-20.2460 Y-4.9779 
G01 X-20.2179 Y-5.0060 
G01 X-20.1811 Y-5.0212 
G01 X-19.5564 Y-5.0212 
G01 X-19.5564 Y-10.7635 
G01 X-19.5608 Y-10.7983 
G01 X-19.5564 Y-10.8299 
G01 X-19.5564 Y-10.8617 
G01 X-19.5473 Y-10.8956 
G01 X-19.5425 Y-10.9304 
G01 X-19.5301 Y-10.9597 
G01 X-19.5219 Y-10.9905 
G01 X-19.5043 Y-11.0209 
G01 X-19.4907 Y-11.0533 
G01 X-19.4711 Y-11.0784 
G01 X-19.4552 Y-11.1059 
G01 X-19.4304 Y-11.1308 
G01 X-17.2486 Y-13.9359 
G01 X-17.2327 Y-13.9634 
G01 X-17.2079 Y-13.9883 
G01 X-17.1863 Y-14.0160 
G01 X-17.1609 Y-14.0352 
G01 X-17.1384 Y-14.0577 
G01 X-17.1080 Y-14.0753 
G01 X-17.0800 Y-14.0965 
G01 X-17.0505 Y-14.1085 
G01 X-17.0230 Y-14.1244 
G01 X-16.9890 Y-14.1335 
G01 X-16.9565 Y-14.1467 
G01 X-16.9249 Y-14.1507 
G01 X-16.8942 Y-14.1589 
G01 X-16.8590 Y-14.1589 
G01 X-16.8242 Y-14.1633 
G01 X-16.7926 Y-14.1589 
G01 X-6.8773 Y-14.1589 
G01 X-4.4751 Y-16.5610 
G01 X-4.4751 Y-27.6620 
G01 X-7.6087 Y-29.6561 
G01 X-17.2757 Y-29.6561 
G01 X-17.3141 Y-29.6518 
G01 X-17.3421 Y-29.6561 
G01 X-17.3704 Y-29.6561 
G01 X-17.4077 Y-29.6661 
G01 X-17.4459 Y-29.6719 
G01 X-17.4718 Y-29.6833 
G01 X-17.4992 Y-29.6906 
G01 X-17.5327 Y-29.7099 
G01 X-17.5680 Y-29.7254 
G01 X-17.5902 Y-29.7431 
G01 X-17.6147 Y-29.7573 
G01 X-17.6420 Y-29.7846 
G01 X-21.5096 Y-32.8787 
G01 X-22.1250 Y-33.0550 
G01 X-22.1250 Y-32.8414 
G01 X-22.1402 Y-32.8046 
G01 X-22.1684 Y-32.7765 
G01 X-22.2051 Y-32.7612 
G01 X-24.1499 Y-32.7612 
G01 X-24.1866 Y-32.7765 
G01 X-24.2148 Y-32.8046 
G01 X-24.2300 Y-32.8414 
G01 X-24.2300 Y-34.6274 
G01 X-24.2148 Y-34.6641 
G01 X-24.1866 Y-34.6923 
G01 X-24.1499 Y-34.7075 
G01 X-23.7861 Y-34.7075 
G01 X-23.8404 Y-39.1840 
G01 X-24.3672 Y-39.8161 
G01 X-43.6052 Y-39.8161 
G01 X-44.2646 Y-39.1567 
G01 X-44.3400 Y-34.7075 
G01 X-43.9539 Y-34.7075 
G01 X-43.9171 Y-34.6923 
G01 X-43.8890 Y-34.6641 
G01 X-43.8738 Y-34.6274 
G01 X-43.8738 Y-32.8414 
G01 X-43.8890 Y-32.8046 
G01 X-43.9171 Y-32.7765 
G01 X-43.9539 Y-32.7612 
G01 X-45.7399 Y-32.7612 
G01 X-45.7766 Y-32.7765 
G01 X-45.8048 Y-32.8046 
G01 X-45.8200 Y-32.8414 
G01 X-45.8200 Y-34.6274 
G01 X-45.8048 Y-34.6641 
G01 X-45.7766 Y-34.6923 
G01 X-45.7399 Y-34.7075 
G01 X-45.3530 Y-34.7075 
G01 X-45.2739 Y-39.3742 
G01 X-45.2739 Y-39.4367 
G01 X-45.2555 Y-39.5052 
G01 X-45.2394 Y-39.5655 
G01 X-45.2039 Y-39.6269 
G01 X-45.1727 Y-39.6809 
G01 X-45.1226 Y-39.7311 
G01 X-44.2202 Y-40.6334 
G01 X-44.1259 Y-40.7277 
G01 X-44.0105 Y-40.7944 
G01 X-43.8817 Y-40.8289 
G01 X-24.1734 Y-40.8289 
G01 X-24.1505 Y-40.8329 
G01 X-24.1070 Y-40.8289 
G01 X-24.0633 Y-40.8289 
G01 X-24.0409 Y-40.8229 
G01 X-24.0178 Y-40.8208 
G01 X-23.9768 Y-40.8057 
G01 X-23.9345 Y-40.7944 
G01 X-23.9144 Y-40.7828 
G01 X-23.8926 Y-40.7748 
G01 X-23.8569 Y-40.7496 
G01 X-23.8191 Y-40.7277 
G01 X-23.8026 Y-40.7113 
G01 X-23.7837 Y-40.6979 
G01 X-23.7557 Y-40.6643 
G01 X-23.7248 Y-40.6334 
G01 X-23.7132 Y-40.6133 
G01 X-22.9639 Y-39.7142 
G01 X-22.9348 Y-39.6858 
G01 X-22.9214 Y-39.6632 
G01 X-22.9045 Y-39.6430 
G01 X-22.8875 Y-39.6061 
G01 X-22.8668 Y-39.5712 
G01 X-22.8596 Y-39.5458 
G01 X-22.8486 Y-39.5219 
G01 X-22.8417 Y-39.4819 
G01 X-22.8307 Y-39.4428 
G01 X-22.8304 Y-39.4165 
G01 X-22.8259 Y-39.3905 
G01 X-22.8296 Y-39.3501 
G01 X-22.7732 Y-34.7075 
G01 X-22.2051 Y-34.7075 
G01 X-22.1684 Y-34.6923 
G01 X-22.1402 Y-34.6641 
G01 X-22.1250 Y-34.6274 
G01 X-22.1250 Y-34.1086 
G01 X-21.1642 Y-33.8332 
G01 X-21.1303 Y-33.8281 
G01 X-21.1004 Y-33.8149 
G01 X-21.0689 Y-33.8059 
G01 X-21.0396 Y-33.7883 
G01 X-21.0082 Y-33.7746 
G01 X-20.9826 Y-33.7541 
G01 X-20.9546 Y-33.7373 
G01 X-20.9308 Y-33.7127 
G01 X-17.1261 Y-30.6689 
G01 X-7.5168 Y-30.6689 
G01 X-7.5060 Y-30.6713 
G01 X-7.4503 Y-30.6689 
G01 X-7.3946 Y-30.6689 
G01 X-7.3839 Y-30.6660 
G01 X-7.3728 Y-30.6655 
G01 X-7.3197 Y-30.6488 
G01 X-7.2658 Y-30.6344 
G01 X-7.2456 Y-30.6255 
G01 X-7.1986 Y-30.5956 
G01 X-7.1503 Y-30.5677 
G01 X-3.7061 Y-28.3731 
G01 X-3.6578 Y-28.3452 
G01 X-3.6406 Y-28.3314 
G01 X-3.6029 Y-28.2903 
G01 X-3.5635 Y-28.2509 
G01 X-3.5505 Y-28.2332 
G01 X-3.5247 Y-28.1838 
G01 X-3.4969 Y-28.1355 
G01 X-3.4940 Y-28.1248 
G01 X-3.4768 Y-28.0605 
G01 X-3.4623 Y-28.0067 
G01 X-3.4623 Y-27.9956 
G01 X-3.4599 Y-27.9848 
G01 X-3.4623 Y-27.9291 
G01 X-3.4623 Y-16.2846 
G01 X-3.4969 Y-16.1558 
G01 X-3.5635 Y-16.0403 
G00 Z1.0000 
G00 X-6.4088 Y-15.0614 
G01 Z-0.0800 F50.00 
G01 X-6.4240 Y-15.0246 F100.00 
G01 X-6.4521 Y-14.9965 
G01 X-6.4889 Y-14.9812 
G01 X-8.4336 Y-14.9812 
G01 X-8.4704 Y-14.9965 
G01 X-8.4985 Y-15.0246 
G01 X-8.5137 Y-15.0614 
G01 X-8.5137 Y-15.8042 
G01 X-8.5744 Y-15.9505 
G01 X-8.6125 Y-16.1422 
G01 X-8.6125 Y-16.3378 
G01 X-8.5744 Y-16.5295 
G01 X-8.5137 Y-16.6758 
G01 X-8.5137 Y-17.1649 
G01 X-8.4985 Y-17.2016 
G01 X-8.4704 Y-17.2298 
G01 X-8.4336 Y-17.2450 
G01 X-6.4889 Y-17.2450 
G01 X-6.4521 Y-17.2298 
G01 X-6.4240 Y-17.2016 
G01 X-6.4088 Y-17.1649 
G01 X-6.4088 Y-15.0614 
G00 Z1.0000 
G00 X-6.4240 Y-17.4059 
G01 Z-0.0800 F50.00 
G01 X-6.4521 Y-17.3777 F100.00 
G01 X-6.4889 Y-17.3625 
G01 X-8.4336 Y-17.3625 
G01 X-8.4704 Y-17.3777 
G01 X-8.4985 Y-17.4059 
G01 X-8.5137 Y-17.4426 
G01 X-8.5137 Y-18.0942 
G01 X-8.5744 Y-18.2405 
G01 X-8.6125 Y-18.4322 
G01 X-8.6125 Y-18.6278 
G01 X-8.5744 Y-18.8195 
G01 X-8.5137 Y-18.9658 
G01 X-8.5137 Y-19.5461 
G01 X-8.4985 Y-19.5829 
G01 X-8.4704 Y-19.6110 
G01 X-8.4336 Y-19.6262 
G01 X-6.4889 Y-19.6262 
G01 X-6.4521 Y-19.6110 
G01 X-6.4240 Y-19.5829 
G01 X-6.4088 Y-19.5461 
G01 X-6.4088 Y-19.0093 
G01 X-6.1604 Y-19.0038 
G01 X-5.3832 Y-21.0116 
G01 X-5.3832 Y-26.9947 
G01 X-7.7211 Y-28.7480 
G01 X-20.8630 Y-28.7480 
G01 X-22.9187 Y-25.2075 
G01 X-22.9187 Y-22.9989 
G01 X-22.9340 Y-22.9621 
G01 X-22.9621 Y-22.9340 
G01 X-22.9989 Y-22.9187 
G01 X-25.0230 Y-22.9187 
G01 X-25.0598 Y-22.9340 
G01 X-25.0879 Y-22.9621 
G01 X-25.1031 Y-22.9989 
G01 X-25.1031 Y-23.9528 
G01 X-25.1190 Y-24.0326 
G01 X-25.1190 Y-24.2274 
G01 X-25.1031 Y-24.3072 
G01 X-25.1031 Y-25.2611 
G01 X-25.0879 Y-25.2979 
G01 X-25.0598 Y-25.3260 
G01 X-25.0230 Y-25.3412 
G01 X-24.0123 Y-25.3412 
G01 X-21.6770 Y-29.3632 
G01 X-21.5824 Y-29.4572 
G01 X-21.4668 Y-29.5236 
G01 X-21.3379 Y-29.5578 
G01 X-21.2046 Y-29.5575 
G01 X-21.0759 Y-29.5227 
G01 X-20.9606 Y-29.4557 
G01 X-20.8665 Y-29.3612 
G01 X-7.6415 Y-29.3544 
G01 X-7.6234 Y-29.3570 
G01 X-7.6018 Y-29.3544 
G01 X-7.5801 Y-29.3544 
G01 X-7.5623 Y-29.3497 
G01 X-7.5441 Y-29.3475 
G01 X-7.5239 Y-29.3394 
G01 X-7.5030 Y-29.3338 
G01 X-7.4871 Y-29.3246 
G01 X-7.4700 Y-29.3178 
G01 X-7.4527 Y-29.3047 
G01 X-7.4338 Y-29.2939 
G01 X-7.4208 Y-29.2809 
G01 X-4.9127 Y-27.3997 
G01 X-4.8938 Y-27.3889 
G01 X-4.8808 Y-27.3759 
G01 X-4.8661 Y-27.3649 
G01 X-4.8528 Y-27.3478 
G01 X-4.8374 Y-27.3324 
G01 X-4.8282 Y-27.3165 
G01 X-4.8169 Y-27.3021 
G01 X-4.8083 Y-27.2821 
G01 X-4.7975 Y-27.2633 
G01 X-4.7927 Y-27.2455 
G01 X-4.7855 Y-27.2286 
G01 X-4.7824 Y-27.2071 
G01 X-4.7768 Y-27.1862 
G01 X-4.7768 Y-27.1678 
G01 X-4.7742 Y-27.1496 
G01 X-4.7768 Y-27.1281 
G01 X-4.7768 Y-20.9784 
G01 X-4.7743 Y-20.9621 
G01 X-4.7768 Y-20.9387 
G01 X-4.7768 Y-20.9151 
G01 X-4.7811 Y-20.8992 
G01 X-4.7828 Y-20.8828 
G01 X-4.7914 Y-20.8607 
G01 X-4.7975 Y-20.8380 
G01 X-4.8057 Y-20.8237 
G01 X-5.6029 Y-18.7642 
G01 X-5.5563 Y-18.6792 
G01 X-5.5247 Y-18.5497 
G01 X-5.5277 Y-18.4164 
G01 X-5.5651 Y-18.2884 
G01 X-5.6344 Y-18.1744 
G01 X-5.7307 Y-18.0823 
G01 X-5.8477 Y-18.0182 
G01 X-5.9772 Y-17.9866 
G01 X-6.4088 Y-17.9963 
G01 X-6.4088 Y-17.4426 
G01 X-6.4240 Y-17.4059 
G00 Z1.0000 
G00 X-6.4240 Y-19.7871 
G01 Z-0.0800 F50.00 
G01 X-6.4521 Y-19.7590 F100.00 
G01 X-6.4889 Y-19.7437 
G01 X-8.4336 Y-19.7437 
G01 X-8.4704 Y-19.7590 
G01 X-8.4985 Y-19.7871 
G01 X-8.5137 Y-19.8239 
G01 X-8.5137 Y-20.3842 
G01 X-8.5744 Y-20.5305 
G01 X-8.6125 Y-20.7222 
G01 X-8.6125 Y-20.9178 
G01 X-8.5744 Y-21.1095 
G01 X-8.5137 Y-21.2558 
G01 X-8.5137 Y-21.7686 
G01 X-8.4985 Y-21.8054 
G01 X-8.4704 Y-21.8335 
G01 X-8.4336 Y-21.8487 
G01 X-6.4889 Y-21.8487 
G01 X-6.4521 Y-21.8335 
G01 X-6.4240 Y-21.8054 
G01 X-6.4088 Y-21.7686 
G01 X-6.4088 Y-21.3052 
G01 X-6.3556 Y-21.3042 
G01 X-6.1769 Y-21.6616 
G01 X-6.1769 Y-26.6468 
G01 X-8.3308 Y-27.7955 
G01 X-19.0351 Y-27.7955 
G01 X-20.3896 Y-25.2873 
G01 X-20.3788 Y-25.2611 
G01 X-20.3788 Y-22.9989 
G01 X-20.3940 Y-22.9621 
G01 X-20.4221 Y-22.9340 
G01 X-20.4589 Y-22.9187 
G01 X-22.7211 Y-22.9187 
G01 X-22.7579 Y-22.9340 
G01 X-22.7860 Y-22.9621 
G01 X-22.8012 Y-22.9989 
G01 X-22.8012 Y-25.2611 
G01 X-22.7860 Y-25.2979 
G01 X-22.7579 Y-25.3260 
G01 X-22.7211 Y-25.3412 
G01 X-21.5114 Y-25.3412 
G01 X-19.8608 Y-28.3980 
G01 X-19.7692 Y-28.4950 
G01 X-19.6557 Y-28.5649 
G01 X-19.5279 Y-28.6030 
G01 X-19.3946 Y-28.6068 
G01 X-19.2649 Y-28.5760 
G01 X-19.1476 Y-28.5127 
G01 X-19.0507 Y-28.4211 
G01 X-19.0389 Y-28.4019 
G01 X-8.2601 Y-28.4019 
G01 X-8.2253 Y-28.4031 
G01 X-8.2151 Y-28.4019 
G01 X-8.1815 Y-28.3929 
G01 X-8.1475 Y-28.3851 
G01 X-8.1078 Y-28.3639 
G01 X-5.7617 Y-27.1126 
G01 X-5.7266 Y-27.0939 
G01 X-5.6958 Y-27.0775 
G01 X-5.6629 Y-27.0467 
G01 X-5.6375 Y-27.0230 
G01 X-5.6137 Y-26.9847 
G01 X-5.5953 Y-26.9552 
G01 X-5.5822 Y-26.9121 
G01 X-5.5721 Y-26.8788 
G01 X-5.5705 Y-26.8687 
G01 X-5.5705 Y-26.8338 
G01 X-5.5694 Y-26.7991 
G01 X-5.5705 Y-21.5991 
G01 X-5.5687 Y-21.5683 
G01 X-5.5705 Y-21.5501 
G01 X-5.5785 Y-21.5203 
G01 X-5.5847 Y-21.4901 
G01 X-5.5912 Y-21.4730 
G01 X-5.6066 Y-21.4463 
G01 X-5.8178 Y-21.0239 
G01 X-5.7954 Y-20.9834 
G01 X-5.7631 Y-20.8540 
G01 X-5.7655 Y-20.7207 
G01 X-5.8022 Y-20.5925 
G01 X-5.8709 Y-20.4782 
G01 X-5.9669 Y-20.3856 
G01 X-6.0835 Y-20.3210 
G01 X-6.2129 Y-20.2888 
G01 X-6.4088 Y-20.2922 
G01 X-6.4088 Y-19.8239 
G01 X-6.4240 Y-19.7871 
G00 Z1.0000 
G00 X-6.4240 Y-22.0096 
G01 Z-0.0800 F50.00 
G01 X-6.4521 Y-21.9815 F100.00 
G01 X-6.4889 Y-21.9662 
G01 X-8.4336 Y-21.9662 
G01 X-8.4704 Y-21.9815 
G01 X-8.4985 Y-22.0096 
G01 X-8.5137 Y-22.0464 
G01 X-8.5137 Y-22.6742 
G01 X-8.5744 Y-22.8205 
G01 X-8.6125 Y-23.0122 
G01 X-8.6125 Y-23.2078 
G01 X-8.5744 Y-23.3995 
G01 X-8.5137 Y-23.5458 
G01 X-8.5137 Y-24.1499 
G01 X-8.4985 Y-24.1866 
G01 X-8.4704 Y-24.2148 
G01 X-8.4336 Y-24.2300 
G01 X-6.4889 Y-24.2300 
G01 X-6.4521 Y-24.2148 
G01 X-6.4240 Y-24.1866 
G01 X-6.4088 Y-24.1499 
G01 X-6.4088 Y-22.0464 
G01 X-6.4240 Y-22.0096 
G00 Z1.0000 
G00 X-6.4240 Y-24.3909 
G01 Z-0.0800 F50.00 
G01 X-6.4521 Y-24.3627 F100.00 
G01 X-6.4889 Y-24.3475 
G01 X-8.4336 Y-24.3475 
G01 X-8.4704 Y-24.3627 
G01 X-8.4985 Y-24.3909 
G01 X-8.5137 Y-24.4276 
G01 X-8.5137 Y-24.9642 
G01 X-8.5744 Y-25.1105 
G01 X-8.6125 Y-25.3022 
G01 X-8.6125 Y-25.4978 
G01 X-8.5744 Y-25.6895 
G01 X-8.5137 Y-25.8358 
G01 X-8.5137 Y-26.5311 
G01 X-8.4985 Y-26.5679 
G01 X-8.4704 Y-26.5960 
G01 X-8.4336 Y-26.6112 
G01 X-6.4889 Y-26.6112 
G01 X-6.4521 Y-26.5960 
G01 X-6.4240 Y-26.5679 
G01 X-6.4088 Y-26.5311 
G01 X-6.4088 Y-24.4276 
G01 X-6.4240 Y-24.3909 
G00 Z1.0000 
G00 X-10.6427 Y-24.4509 
G01 Z-0.0800 F50.00 
G01 X-10.6709 Y-24.4227 F100.00 
G01 X-10.7076 Y-24.4075 
G01 X-12.5324 Y-24.4075 
G01 X-12.5691 Y-24.4227 
G01 X-12.5973 Y-24.4509 
G01 X-12.6125 Y-24.4876 
G01 X-12.6125 Y-24.8936 
G01 X-13.3358 Y-24.8936 
G01 X-17.6115 Y-19.1927 
G01 X-17.5911 Y-19.1167 
G01 X-17.5911 Y-18.9833 
G01 X-17.6256 Y-18.8545 
G01 X-17.6923 Y-18.7391 
G01 X-17.7866 Y-18.6448 
G01 X-17.9020 Y-18.5781 
G01 X-18.0308 Y-18.5436 
G01 X-26.7367 Y-18.5436 
G01 X-27.0542 Y-18.5436 
G01 X-31.8167 Y-18.5436 
G01 X-31.9455 Y-18.5781 
G01 X-32.0609 Y-18.6448 
G01 X-32.0862 Y-18.6700 
G01 X-32.4699 Y-18.6700 
G01 X-32.5066 Y-18.6852 
G01 X-32.5348 Y-18.7134 
G01 X-32.5500 Y-18.7501 
G01 X-32.5500 Y-19.8899 
G01 X-32.5348 Y-19.9266 
G01 X-32.5066 Y-19.9548 
G01 X-32.4699 Y-19.9700 
G01 X-31.0301 Y-19.9700 
G01 X-30.9934 Y-19.9548 
G01 X-30.9652 Y-19.9266 
G01 X-30.9500 Y-19.8899 
G01 X-30.9500 Y-19.5564 
G01 X-30.0100 Y-19.5564 
G01 X-30.0100 Y-19.8899 
G01 X-29.9948 Y-19.9266 
G01 X-29.9666 Y-19.9548 
G01 X-29.9299 Y-19.9700 
G01 X-28.4901 Y-19.9700 
G01 X-28.4534 Y-19.9548 
G01 X-28.4252 Y-19.9266 
G01 X-28.4100 Y-19.8899 
G01 X-28.4100 Y-19.5564 
G01 X-27.4700 Y-19.5564 
G01 X-27.4700 Y-19.8899 
G01 X-27.4548 Y-19.9266 
G01 X-27.4266 Y-19.9548 
G01 X-27.3899 Y-19.9700 
G01 X-25.9501 Y-19.9700 
G01 X-25.9134 Y-19.9548 
G01 X-25.8852 Y-19.9266 
G01 X-25.8700 Y-19.8899 
G01 X-25.8700 Y-19.5564 
G01 X-18.0967 Y-19.5564 
G01 X-13.8210 Y-25.2573 
G01 X-13.8414 Y-25.3333 
G01 X-13.8414 Y-25.4667 
G01 X-13.8069 Y-25.5955 
G01 X-13.7402 Y-25.7109 
G01 X-13.6459 Y-25.8052 
G01 X-13.5305 Y-25.8719 
G01 X-13.4017 Y-25.9064 
G01 X-12.6125 Y-25.9064 
G01 X-12.6125 Y-26.3124 
G01 X-12.5973 Y-26.3491 
G01 X-12.5691 Y-26.3773 
G01 X-12.5324 Y-26.3925 
G01 X-10.7076 Y-26.3925 
G01 X-10.6709 Y-26.3773 
G01 X-10.6427 Y-26.3491 
G01 X-10.6275 Y-26.3124 
G01 X-10.6275 Y-24.4876 
G01 X-10.6427 Y-24.4509 
G00 Z1.0000 
G00 X-10.7384 Y-24.2148 
G01 Z-0.0800 F50.00 
G01 X-10.7102 Y-24.1866 F100.00 
G01 X-10.6950 Y-24.1499 
G01 X-10.6950 Y-23.4704 
G01 X-10.6656 Y-23.3995 
G01 X-10.6275 Y-23.2078 
G01 X-10.6275 Y-23.0122 
G01 X-10.6656 Y-22.8205 
G01 X-10.6950 Y-22.7496 
G01 X-10.6950 Y-22.0464 
G01 X-10.7102 Y-22.0096 
G01 X-10.7384 Y-21.9815 
G01 X-10.7751 Y-21.9662 
G01 X-12.5611 Y-21.9662 
G01 X-12.5979 Y-21.9815 
G01 X-12.6260 Y-22.0096 
G01 X-12.6412 Y-22.0464 
G01 X-12.6412 Y-22.5965 
G01 X-13.2919 Y-22.5920 
G01 X-16.5673 Y-17.3068 
G01 X-16.5849 Y-17.2763 
G01 X-16.6164 Y-17.2448 
G01 X-16.6413 Y-17.2199 
G01 X-16.6800 Y-17.1976 
G01 X-16.7105 Y-17.1800 
G01 X-16.7536 Y-17.1684 
G01 X-16.7876 Y-17.1593 
G01 X-16.8322 Y-17.1593 
G01 X-32.9310 Y-17.1593 
G01 X-32.9531 Y-17.1261 
G01 X-33.0533 Y-17.0381 
G01 X-33.1728 Y-16.9790 
G01 X-33.3036 Y-16.9529 
G01 X-33.4366 Y-16.9614 
G01 X-33.5629 Y-17.0042 
G01 X-33.6739 Y-17.0781 
G01 X-33.7619 Y-17.1783 
G01 X-33.8210 Y-17.2978 
G01 X-34.0789 Y-18.5872 
G01 X-34.0945 Y-18.5781 
G01 X-34.2233 Y-18.5436 
G01 X-36.8967 Y-18.5436 
G01 X-39.4367 Y-18.5436 
G01 X-39.5655 Y-18.5781 
G01 X-39.6809 Y-18.6448 
G01 X-39.7062 Y-18.6700 
G01 X-40.0899 Y-18.6700 
G01 X-40.1266 Y-18.6852 
G01 X-40.1548 Y-18.7134 
G01 X-40.1700 Y-18.7501 
G01 X-40.1700 Y-19.8899 
G01 X-40.1548 Y-19.9266 
G01 X-40.1266 Y-19.9548 
G01 X-40.0899 Y-19.9700 
G01 X-38.6501 Y-19.9700 
G01 X-38.6134 Y-19.9548 
G01 X-38.5852 Y-19.9266 
G01 X-38.5700 Y-19.8899 
G01 X-38.5700 Y-19.5564 
G01 X-37.6300 Y-19.5564 
G01 X-37.6300 Y-19.8899 
G01 X-37.6148 Y-19.9266 
G01 X-37.5866 Y-19.9548 
G01 X-37.5499 Y-19.9700 
G01 X-36.1101 Y-19.9700 
G01 X-36.0734 Y-19.9548 
G01 X-36.0452 Y-19.9266 
G01 X-36.0300 Y-19.8899 
G01 X-36.0300 Y-19.5564 
G01 X-35.0900 Y-19.5564 
G01 X-35.0900 Y-19.8899 
G01 X-35.0748 Y-19.9266 
G01 X-35.0466 Y-19.9548 
G01 X-35.0099 Y-19.9700 
G01 X-33.5701 Y-19.9700 
G01 X-33.5334 Y-19.9548 
G01 X-33.5052 Y-19.9266 
G01 X-33.4900 Y-19.8899 
G01 X-33.4900 Y-19.5288 
G01 X-33.4296 Y-19.5083 
G01 X-33.3186 Y-19.4344 
G01 X-33.2306 Y-19.3342 
G01 X-33.1715 Y-19.2147 
G01 X-32.8817 Y-17.7657 
G01 X-16.9963 Y-17.7657 
G01 X-13.8084 Y-22.9098 
G01 X-13.8409 Y-23.0280 
G01 X-13.8418 Y-23.1613 
G01 X-13.8082 Y-23.2903 
G01 X-13.7424 Y-23.4062 
G01 X-13.6487 Y-23.5012 
G01 X-13.5337 Y-23.5686 
G01 X-13.4052 Y-23.6040 
G01 X-12.6412 Y-23.6093 
G01 X-12.6412 Y-24.1499 
G01 X-12.6260 Y-24.1866 
G01 X-12.5979 Y-24.2148 
G01 X-12.5611 Y-24.2300 
G01 X-10.7751 Y-24.2300 
G01 X-10.7384 Y-24.2148 
G00 Z1.0000 
G00 X-10.7384 Y-21.8335 
G01 Z-0.0800 F50.00 
G01 X-10.7102 Y-21.8054 F100.00 
G01 X-10.6950 Y-21.7686 
G01 X-10.6950 Y-21.1804 
G01 X-10.6656 Y-21.1095 
G01 X-10.6275 Y-20.9178 
G01 X-10.6275 Y-20.7222 
G01 X-10.6656 Y-20.5305 
G01 X-10.6950 Y-20.4596 
G01 X-10.6950 Y-19.8239 
G01 X-10.7102 Y-19.7871 
G01 X-10.7384 Y-19.7590 
G01 X-10.7751 Y-19.7437 
G01 X-12.5611 Y-19.7437 
G01 X-12.5979 Y-19.7590 
G01 X-12.6260 Y-19.7871 
G01 X-12.6412 Y-19.8239 
G01 X-12.6412 Y-20.2971 
G01 X-13.0635 Y-20.2903 
G01 X-15.6163 Y-16.3516 
G01 X-15.6324 Y-16.3238 
G01 X-15.6423 Y-16.3116 
G01 X-15.6661 Y-16.2901 
G01 X-15.6888 Y-16.2674 
G01 X-15.7016 Y-16.2581 
G01 X-15.7302 Y-16.2435 
G01 X-15.7580 Y-16.2275 
G01 X-15.7727 Y-16.2218 
G01 X-15.8041 Y-16.2151 
G01 X-15.8351 Y-16.2068 
G01 X-15.8507 Y-16.2051 
G01 X-15.8828 Y-16.2068 
G01 X-40.8664 Y-16.2068 
G01 X-40.8751 Y-16.1923 
G01 X-40.9709 Y-16.0996 
G01 X-41.0875 Y-16.0349 
G01 X-41.2169 Y-16.0025 
G01 X-41.3502 Y-16.0048 
G01 X-41.4784 Y-16.0415 
G01 X-41.5927 Y-16.1101 
G01 X-41.6854 Y-16.2059 
G01 X-41.7501 Y-16.3225 
G01 X-42.3054 Y-18.5436 
G01 X-44.5167 Y-18.5436 
G01 X-44.6455 Y-18.5781 
G01 X-44.7609 Y-18.6448 
G01 X-44.7862 Y-18.6700 
G01 X-45.1699 Y-18.6700 
G01 X-45.2066 Y-18.6852 
G01 X-45.2348 Y-18.7134 
G01 X-45.2500 Y-18.7501 
G01 X-45.2500 Y-19.8899 
G01 X-45.2348 Y-19.9266 
G01 X-45.2066 Y-19.9548 
G01 X-45.1699 Y-19.9700 
G01 X-43.7301 Y-19.9700 
G01 X-43.6934 Y-19.9548 
G01 X-43.6652 Y-19.9266 
G01 X-43.6500 Y-19.8899 
G01 X-43.6500 Y-19.5564 
G01 X-42.7100 Y-19.5564 
G01 X-42.7100 Y-19.8899 
G01 X-42.6948 Y-19.9266 
G01 X-42.6666 Y-19.9548 
G01 X-42.6299 Y-19.9700 
G01 X-41.1901 Y-19.9700 
G01 X-41.1534 Y-19.9548 
G01 X-41.1252 Y-19.9266 
G01 X-41.1100 Y-19.8899 
G01 X-41.1100 Y-18.7501 
G01 X-41.1252 Y-18.7134 
G01 X-41.1534 Y-18.6852 
G01 X-41.1901 Y-18.6700 
G01 X-41.2930 Y-18.6700 
G01 X-40.8288 Y-16.8132 
G01 X-16.0398 Y-16.8132 
G01 X-13.5730 Y-20.6192 
G01 X-13.6021 Y-20.7214 
G01 X-13.6043 Y-20.8548 
G01 X-13.5718 Y-20.9841 
G01 X-13.5070 Y-21.1006 
G01 X-13.4143 Y-21.1964 
G01 X-13.2999 Y-21.2649 
G01 X-13.1717 Y-21.3015 
G01 X-12.6412 Y-21.3100 
G01 X-12.6412 Y-21.7686 
G01 X-12.6260 Y-21.8054 
G01 X-12.5979 Y-21.8335 
G01 X-12.5611 Y-21.8487 
G01 X-10.7751 Y-21.8487 
G01 X-10.7384 Y-21.8335 
G00 Z1.0000 
G00 X-10.7384 Y-19.6110 
G01 Z-0.0800 F50.00 
G01 X-10.7102 Y-19.5829 F100.00 
G01 X-10.6950 Y-19.5461 
G01 X-10.6950 Y-18.8904 
G01 X-10.6656 Y-18.8195 
G01 X-10.6275 Y-18.6278 
G01 X-10.6275 Y-18.4322 
G01 X-10.6656 Y-18.2405 
G01 X-10.6950 Y-18.1696 
G01 X-10.6950 Y-17.6014 
G01 X-10.7102 Y-17.5646 
G01 X-10.7384 Y-17.5365 
G01 X-10.7751 Y-17.5212 
G01 X-12.5611 Y-17.5212 
G01 X-12.5979 Y-17.5365 
G01 X-12.6260 Y-17.5646 
G01 X-12.6412 Y-17.6014 
G01 X-12.6412 Y-19.5461 
G01 X-12.6260 Y-19.5829 
G01 X-12.5979 Y-19.6110 
G01 X-12.5611 Y-19.6262 
G01 X-10.7751 Y-19.6262 
G01 X-10.7384 Y-19.6110 
G00 Z1.0000 
G00 X-17.8540 Y-22.9621 
G01 Z-0.0800 F50.00 
G01 X-17.8821 Y-22.9340 F100.00 
G01 X-17.9189 Y-22.9187 
G01 X-20.1811 Y-22.9187 
G01 X-20.2179 Y-22.9340 
G01 X-20.2460 Y-22.9621 
G01 X-20.2612 Y-22.9989 
G01 X-20.2612 Y-25.2611 
G01 X-20.2460 Y-25.2979 
G01 X-20.2179 Y-25.3260 
G01 X-20.1811 Y-25.3412 
G01 X-17.9189 Y-25.3412 
G01 X-17.8821 Y-25.3260 
G01 X-17.8540 Y-25.2979 
G01 X-17.8388 Y-25.2611 
G01 X-17.8388 Y-22.9989 
G01 X-17.8540 Y-22.9621 
G00 Z1.0000 
G00 X-25.7121 Y-22.9621 
G01 Z-0.0800 F50.00 
G01 X-25.7402 Y-22.9340 F100.00 
G01 X-25.7770 Y-22.9187 
G01 X-26.1636 Y-22.9187 
G01 X-26.1636 Y-21.9700 
G01 X-25.9501 Y-21.9700 
G01 X-25.9134 Y-21.9548 
G01 X-25.8852 Y-21.9266 
G01 X-25.8700 Y-21.8899 
G01 X-25.8700 Y-20.7501 
G01 X-25.8852 Y-20.7134 
G01 X-25.9134 Y-20.6852 
G01 X-25.9501 Y-20.6700 
G01 X-27.3899 Y-20.6700 
G01 X-27.4266 Y-20.6852 
G01 X-27.4548 Y-20.7134 
G01 X-27.4700 Y-20.7501 
G01 X-27.4700 Y-21.8899 
G01 X-27.4548 Y-21.9266 
G01 X-27.4266 Y-21.9548 
G01 X-27.3899 Y-21.9700 
G01 X-27.1764 Y-21.9700 
G01 X-27.1764 Y-22.9187 
G01 X-27.8011 Y-22.9187 
G01 X-27.8379 Y-22.9340 
G01 X-27.8660 Y-22.9621 
G01 X-27.8812 Y-22.9989 
G01 X-27.8812 Y-25.2611 
G01 X-27.8660 Y-25.2979 
G01 X-27.8379 Y-25.3260 
G01 X-27.8011 Y-25.3412 
G01 X-25.7770 Y-25.3412 
G01 X-25.7402 Y-25.3260 
G01 X-25.7121 Y-25.2979 
G01 X-25.6969 Y-25.2611 
G01 X-25.6969 Y-24.3072 
G01 X-25.6810 Y-24.2274 
G01 X-25.6810 Y-24.0326 
G01 X-25.6969 Y-23.9528 
G01 X-25.6969 Y-22.9989 
G01 X-25.7121 Y-22.9621 
G00 Z1.0000 
G00 X-28.0140 Y-22.9621 
G01 Z-0.0800 F50.00 
G01 X-28.0421 Y-22.9340 F100.00 
G01 X-28.0789 Y-22.9187 
G01 X-28.7036 Y-22.9187 
G01 X-28.7036 Y-21.9700 
G01 X-28.4901 Y-21.9700 
G01 X-28.4534 Y-21.9548 
G01 X-28.4252 Y-21.9266 
G01 X-28.4100 Y-21.8899 
G01 X-28.4100 Y-20.7501 
G01 X-28.4252 Y-20.7134 
G01 X-28.4534 Y-20.6852 
G01 X-28.4901 Y-20.6700 
G01 X-29.9299 Y-20.6700 
G01 X-29.9666 Y-20.6852 
G01 X-29.9948 Y-20.7134 
G01 X-30.0100 Y-20.7501 
G01 X-30.0100 Y-21.8899 
G01 X-29.9948 Y-21.9266 
G01 X-29.9666 Y-21.9548 
G01 X-29.9299 Y-21.9700 
G01 X-29.7164 Y-21.9700 
G01 X-29.7164 Y-22.9187 
G01 X-30.3411 Y-22.9187 
G01 X-30.3779 Y-22.9340 
G01 X-30.4060 Y-22.9621 
G01 X-30.4212 Y-22.9989 
G01 X-30.4212 Y-25.2611 
G01 X-30.4060 Y-25.2979 
G01 X-30.3779 Y-25.3260 
G01 X-30.3411 Y-25.3412 
G01 X-28.0789 Y-25.3412 
G01 X-28.0421 Y-25.3260 
G01 X-28.0140 Y-25.2979 
G01 X-27.9988 Y-25.2611 
G01 X-27.9988 Y-22.9989 
G01 X-28.0140 Y-22.9621 
G00 Z1.0000 
G00 X-30.5540 Y-22.9621 
G01 Z-0.0800 F50.00 
G01 X-30.5821 Y-22.9340 F100.00 
G01 X-30.6189 Y-22.9187 
G01 X-31.2436 Y-22.9187 
G01 X-31.2436 Y-21.9700 
G01 X-31.0301 Y-21.9700 
G01 X-30.9934 Y-21.9548 
G01 X-30.9652 Y-21.9266 
G01 X-30.9500 Y-21.8899 
G01 X-30.9500 Y-20.7501 
G01 X-30.9652 Y-20.7134 
G01 X-30.9934 Y-20.6852 
G01 X-31.0301 Y-20.6700 
G01 X-32.4699 Y-20.6700 
G01 X-32.5066 Y-20.6852 
G01 X-32.5348 Y-20.7134 
G01 X-32.5500 Y-20.7501 
G01 X-32.5500 Y-21.8899 
G01 X-32.5348 Y-21.9266 
G01 X-32.5066 Y-21.9548 
G01 X-32.4699 Y-21.9700 
G01 X-32.2564 Y-21.9700 
G01 X-32.2564 Y-22.9187 
G01 X-32.8811 Y-22.9187 
G01 X-32.9179 Y-22.9340 
G01 X-32.9460 Y-22.9621 
G01 X-32.9612 Y-22.9989 
G01 X-32.9612 Y-25.2611 
G01 X-32.9460 Y-25.2979 
G01 X-32.9179 Y-25.3260 
G01 X-32.8811 Y-25.3412 
G01 X-30.6189 Y-25.3412 
G01 X-30.5821 Y-25.3260 
G01 X-30.5540 Y-25.2979 
G01 X-30.5388 Y-25.2611 
G01 X-30.5388 Y-22.9989 
G01 X-30.5540 Y-22.9621 
G00 Z1.0000 
G00 X-33.0940 Y-22.9621 
G01 Z-0.0800 F50.00 
G01 X-33.1221 Y-22.9340 F100.00 
G01 X-33.1589 Y-22.9187 
G01 X-33.7836 Y-22.9187 
G01 X-33.7836 Y-21.9700 
G01 X-33.5701 Y-21.9700 
G01 X-33.5334 Y-21.9548 
G01 X-33.5052 Y-21.9266 
G01 X-33.4900 Y-21.8899 
G01 X-33.4900 Y-20.7501 
G01 X-33.5052 Y-20.7134 
G01 X-33.5334 Y-20.6852 
G01 X-33.5701 Y-20.6700 
G01 X-35.0099 Y-20.6700 
G01 X-35.0466 Y-20.6852 
G01 X-35.0748 Y-20.7134 
G01 X-35.0900 Y-20.7501 
G01 X-35.0900 Y-21.8899 
G01 X-35.0748 Y-21.9266 
G01 X-35.0466 Y-21.9548 
G01 X-35.0099 Y-21.9700 
G01 X-34.7964 Y-21.9700 
G01 X-34.7964 Y-22.9187 
G01 X-35.4211 Y-22.9187 
G01 X-35.4579 Y-22.9340 
G01 X-35.4860 Y-22.9621 
G01 X-35.5012 Y-22.9989 
G01 X-35.5012 Y-25.2611 
G01 X-35.4860 Y-25.2979 
G01 X-35.4579 Y-25.3260 
G01 X-35.4211 Y-25.3412 
G01 X-33.1589 Y-25.3412 
G01 X-33.1221 Y-25.3260 
G01 X-33.0940 Y-25.2979 
G01 X-33.0787 Y-25.2611 
G01 X-33.0787 Y-22.9989 
G01 X-33.0940 Y-22.9621 
G00 Z1.0000 
G00 X-35.6340 Y-22.9621 
G01 Z-0.0800 F50.00 
G01 X-35.6621 Y-22.9340 F100.00 
G01 X-35.6989 Y-22.9187 
G01 X-36.3236 Y-22.9187 
G01 X-36.3236 Y-21.9700 
G01 X-36.1101 Y-21.9700 
G01 X-36.0734 Y-21.9548 
G01 X-36.0452 Y-21.9266 
G01 X-36.0300 Y-21.8899 
G01 X-36.0300 Y-20.7501 
G01 X-36.0452 Y-20.7134 
G01 X-36.0734 Y-20.6852 
G01 X-36.1101 Y-20.6700 
G01 X-37.5499 Y-20.6700 
G01 X-37.5866 Y-20.6852 
G01 X-37.6148 Y-20.7134 
G01 X-37.6300 Y-20.7501 
G01 X-37.6300 Y-21.8899 
G01 X-37.6148 Y-21.9266 
G01 X-37.5866 Y-21.9548 
G01 X-37.5499 Y-21.9700 
G01 X-37.3364 Y-21.9700 
G01 X-37.3364 Y-22.9187 
G01 X-37.9611 Y-22.9187 
G01 X-37.9979 Y-22.9340 
G01 X-38.0260 Y-22.9621 
G01 X-38.0412 Y-22.9989 
G01 X-38.0412 Y-25.2611 
G01 X-38.0260 Y-25.2979 
G01 X-37.9979 Y-25.3260 
G01 X-37.9611 Y-25.3412 
G01 X-35.6989 Y-25.3412 
G01 X-35.6621 Y-25.3260 
G01 X-35.6340 Y-25.2979 
G01 X-35.6187 Y-25.2611 
G01 X-35.6187 Y-22.9989 
G01 X-35.6340 Y-22.9621 
G00 Z1.0000 
G00 X-38.1740 Y-22.9621 
G01 Z-0.0800 F50.00 
G01 X-38.2021 Y-22.9340 F100.00 
G01 X-38.2389 Y-22.9187 
G01 X-38.8636 Y-22.9187 
G01 X-38.8636 Y-21.9700 
G01 X-38.6501 Y-21.9700 
G01 X-38.6134 Y-21.9548 
G01 X-38.5852 Y-21.9266 
G01 X-38.5700 Y-21.8899 
G01 X-38.5700 Y-20.7501 
G01 X-38.5852 Y-20.7134 
G01 X-38.6134 Y-20.6852 
G01 X-38.6501 Y-20.6700 
G01 X-40.0899 Y-20.6700 
G01 X-40.1266 Y-20.6852 
G01 X-40.1548 Y-20.7134 
G01 X-40.1700 Y-20.7501 
G01 X-40.1700 Y-21.8899 
G01 X-40.1548 Y-21.9266 
G01 X-40.1266 Y-21.9548 
G01 X-40.0899 Y-21.9700 
G01 X-39.8764 Y-21.9700 
G01 X-39.8764 Y-22.9187 
G01 X-40.5011 Y-22.9187 
G01 X-40.5379 Y-22.9340 
G01 X-40.5660 Y-22.9621 
G01 X-40.5812 Y-22.9989 
G01 X-40.5812 Y-25.2611 
G01 X-40.5660 Y-25.2979 
G01 X-40.5379 Y-25.3260 
G01 X-40.5011 Y-25.3412 
G01 X-38.2389 Y-25.3412 
G01 X-38.2021 Y-25.3260 
G01 X-38.1740 Y-25.2979 
G01 X-38.1587 Y-25.2611 
G01 X-38.1587 Y-22.9989 
G01 X-38.1740 Y-22.9621 
G00 Z1.0000 
G00 X-40.7140 Y-22.9621 
G01 Z-0.0800 F50.00 
G01 X-40.7421 Y-22.9340 F100.00 
G01 X-40.7789 Y-22.9187 
G01 X-41.4036 Y-22.9187 
G01 X-41.4036 Y-21.9700 
G01 X-41.1901 Y-21.9700 
G01 X-41.1534 Y-21.9548 
G01 X-41.1252 Y-21.9266 
G01 X-41.1100 Y-21.8899 
G01 X-41.1100 Y-20.7501 
G01 X-41.1252 Y-20.7134 
G01 X-41.1534 Y-20.6852 
G01 X-41.1901 Y-20.6700 
G01 X-42.6299 Y-20.6700 
G01 X-42.6666 Y-20.6852 
G01 X-42.6948 Y-20.7134 
G01 X-42.7100 Y-20.7501 
G01 X-42.7100 Y-21.8899 
G01 X-42.6948 Y-21.9266 
G01 X-42.6666 Y-21.9548 
G01 X-42.6299 Y-21.9700 
G01 X-42.4164 Y-21.9700 
G01 X-42.4164 Y-22.9187 
G01 X-43.0411 Y-22.9187 
G01 X-43.0779 Y-22.9340 
G01 X-43.1060 Y-22.9621 
G01 X-43.1212 Y-22.9989 
G01 X-43.1212 Y-25.2611 
G01 X-43.1060 Y-25.2979 
G01 X-43.0779 Y-25.3260 
G01 X-43.0411 Y-25.3412 
G01 X-40.7789 Y-25.3412 
G01 X-40.7421 Y-25.3260 
G01 X-40.7140 Y-25.2979 
G01 X-40.6987 Y-25.2611 
G01 X-40.6987 Y-22.9989 
G01 X-40.7140 Y-22.9621 
G00 Z1.0000 
G00 X-43.2540 Y-22.9621 
G01 Z-0.0800 F50.00 
G01 X-43.2821 Y-22.9340 F100.00 
G01 X-43.3189 Y-22.9187 
G01 X-43.9436 Y-22.9187 
G01 X-43.9436 Y-21.9700 
G01 X-43.7301 Y-21.9700 
G01 X-43.6934 Y-21.9548 
G01 X-43.6652 Y-21.9266 
G01 X-43.6500 Y-21.8899 
G01 X-43.6500 Y-20.7501 
G01 X-43.6652 Y-20.7134 
G01 X-43.6934 Y-20.6852 
G01 X-43.7301 Y-20.6700 
G01 X-45.1699 Y-20.6700 
G01 X-45.2066 Y-20.6852 
G01 X-45.2348 Y-20.7134 
G01 X-45.2500 Y-20.7501 
G01 X-45.2500 Y-21.8899 
G01 X-45.2348 Y-21.9266 
G01 X-45.2066 Y-21.9548 
G01 X-45.1699 Y-21.9700 
G01 X-44.9564 Y-21.9700 
G01 X-44.9564 Y-22.9187 
G01 X-45.5811 Y-22.9187 
G01 X-45.6179 Y-22.9340 
G01 X-45.6460 Y-22.9621 
G01 X-45.6612 Y-22.9989 
G01 X-45.6612 Y-25.2611 
G01 X-45.6460 Y-25.2979 
G01 X-45.6179 Y-25.3260 
G01 X-45.5811 Y-25.3412 
G01 X-43.3189 Y-25.3412 
G01 X-43.2821 Y-25.3260 
G01 X-43.2540 Y-25.2979 
G01 X-43.2388 Y-25.2611 
G01 X-43.2388 Y-22.9989 
G01 X-43.2540 Y-22.9621 
G00 Z1.0000 
G00 X-45.7940 Y-22.9621 
G01 Z-0.0800 F50.00 
G01 X-45.8221 Y-22.9340 F100.00 
G01 X-45.8589 Y-22.9187 
G01 X-48.1211 Y-22.9187 
G01 X-48.1579 Y-22.9340 
G01 X-48.1860 Y-22.9621 
G01 X-48.2012 Y-22.9989 
G01 X-48.2012 Y-25.2611 
G01 X-48.1860 Y-25.2979 
G01 X-48.1579 Y-25.3260 
G01 X-48.1211 Y-25.3412 
G01 X-47.4964 Y-25.3412 
G01 X-47.4964 Y-25.6254 
G01 X-47.4619 Y-25.7542 
G01 X-47.3952 Y-25.8697 
G01 X-47.3009 Y-25.9640 
G01 X-47.1855 Y-26.0306 
G01 X-47.0567 Y-26.0651 
G01 X-46.9233 Y-26.0651 
G01 X-46.8033 Y-26.0330 
G01 X-45.9100 Y-26.5913 
G01 X-45.8762 Y-26.6124 
G01 X-45.8468 Y-26.6308 
G01 X-45.8036 Y-26.6440 
G01 X-45.7705 Y-26.6541 
G01 X-45.7599 Y-26.6557 
G01 X-45.7253 Y-26.6557 
G01 X-45.6907 Y-26.6569 
G01 X-33.7436 Y-26.6557 
G01 X-28.4464 Y-30.0400 
G01 X-28.4464 Y-32.7612 
G01 X-28.9124 Y-32.7612 
G01 X-28.9491 Y-32.7765 
G01 X-28.9773 Y-32.8046 
G01 X-28.9925 Y-32.8414 
G01 X-28.9925 Y-34.6274 
G01 X-28.9773 Y-34.6641 
G01 X-28.9491 Y-34.6923 
G01 X-28.9124 Y-34.7075 
G01 X-28.0819 Y-34.7075 
G01 X-28.0492 Y-34.7140 
G01 X-27.8908 Y-34.7140 
G01 X-27.8581 Y-34.7075 
G01 X-26.9676 Y-34.7075 
G01 X-26.9309 Y-34.6923 
G01 X-26.9027 Y-34.6641 
G01 X-26.8875 Y-34.6274 
G01 X-26.8875 Y-32.8414 
G01 X-26.9027 Y-32.8046 
G01 X-26.9309 Y-32.7765 
G01 X-26.9676 Y-32.7612 
G01 X-27.4336 Y-32.7612 
G01 X-27.4336 Y-29.9371 
G01 X-27.4681 Y-29.8083 
G01 X-27.5348 Y-29.6928 
G01 X-27.6291 Y-29.5985 
G01 X-27.7445 Y-29.5319 
G01 X-27.8733 Y-29.4974 
G01 X-28.0067 Y-29.4974 
G01 X-28.1214 Y-29.5281 
G01 X-33.4639 Y-26.1148 
G01 X-33.4975 Y-26.0933 
G01 X-33.5254 Y-26.0755 
G01 X-33.5380 Y-26.0700 
G01 X-33.5699 Y-26.0614 
G01 X-33.6015 Y-26.0514 
G01 X-33.6151 Y-26.0493 
G01 X-33.6482 Y-26.0493 
G01 X-33.6813 Y-26.0478 
G01 X-45.6330 Y-26.0493 
G01 X-46.4836 Y-25.5177 
G01 X-46.4836 Y-25.3412 
G01 X-45.8589 Y-25.3412 
G01 X-45.8221 Y-25.3260 
G01 X-45.7940 Y-25.2979 
G01 X-45.7788 Y-25.2611 
G01 X-45.7788 Y-22.9989 
G01 X-45.7940 Y-22.9621 
G00 Z1.0000 
G00 X-46.3934 Y-22.3398 
G01 Z-0.0800 F50.00 
G01 X-46.3652 Y-22.3116 F100.00 
G01 X-46.3500 Y-22.2749 
G01 X-46.3500 Y-20.6351 
G01 X-46.3652 Y-20.5984 
G01 X-46.3934 Y-20.5702 
G01 X-46.4301 Y-20.5550 
G01 X-47.8699 Y-20.5550 
G01 X-47.9066 Y-20.5702 
G01 X-47.9348 Y-20.5984 
G01 X-47.9500 Y-20.6351 
G01 X-47.9500 Y-22.2749 
G01 X-47.9348 Y-22.3116 
G01 X-47.9066 Y-22.3398 
G01 X-47.8699 Y-22.3550 
G01 X-46.4301 Y-22.3550 
G01 X-46.3934 Y-22.3398 
G00 Z1.0000 
G00 X-48.3340 Y-22.9621 
G01 Z-0.0800 F50.00 
G01 X-48.3621 Y-22.9340 F100.00 
G01 X-48.3989 Y-22.9187 
G01 X-50.4230 Y-22.9187 
G01 X-50.4598 Y-22.9340 
G01 X-50.4879 Y-22.9621 
G01 X-50.5031 Y-22.9989 
G01 X-50.5031 Y-23.9528 
G01 X-50.5190 Y-24.0326 
G01 X-50.5190 Y-24.2274 
G01 X-50.5031 Y-24.3072 
G01 X-50.5031 Y-25.2611 
G01 X-50.4879 Y-25.2979 
G01 X-50.4598 Y-25.3260 
G01 X-50.4230 Y-25.3412 
G01 X-49.4905 Y-25.3412 
G01 X-48.3656 Y-27.5911 
G01 X-48.2772 Y-27.6909 
G01 X-48.1659 Y-27.7643 
G01 X-48.0394 Y-27.8065 
G01 X-47.9063 Y-27.8145 
G01 X-47.7757 Y-27.7877 
G01 X-47.6564 Y-27.7281 
G01 X-47.5566 Y-27.6397 
G01 X-47.5359 Y-27.6082 
G01 X-34.7238 Y-27.6082 
G01 X-31.9389 Y-30.1147 
G01 X-31.9389 Y-30.2292 
G01 X-31.9044 Y-30.3580 
G01 X-31.8377 Y-30.4734 
G01 X-31.2150 Y-31.0962 
G01 X-31.2150 Y-32.4049 
G01 X-31.1998 Y-32.4416 
G01 X-31.1716 Y-32.4698 
G01 X-31.1349 Y-32.4850 
G01 X-29.1901 Y-32.4850 
G01 X-29.1534 Y-32.4698 
G01 X-29.1252 Y-32.4416 
G01 X-29.1100 Y-32.4049 
G01 X-29.1100 Y-30.3014 
G01 X-29.1252 Y-30.2646 
G01 X-29.1534 Y-30.2365 
G01 X-29.1901 Y-30.2213 
G01 X-30.6576 Y-30.2213 
G01 X-31.1216 Y-29.7573 
G01 X-31.2370 Y-29.6906 
G01 X-31.3658 Y-29.6561 
G01 X-31.4992 Y-29.6561 
G01 X-31.5321 Y-29.6649 
G01 X-34.3987 Y-27.0850 
G01 X-34.4213 Y-27.0624 
G01 X-34.4343 Y-27.0529 
G01 X-34.4628 Y-27.0384 
G01 X-34.4905 Y-27.0225 
G01 X-34.5055 Y-27.0167 
G01 X-34.5367 Y-27.0101 
G01 X-34.5676 Y-27.0018 
G01 X-34.5836 Y-27.0001 
G01 X-34.6155 Y-27.0018 
G01 X-47.5279 Y-27.0018 
G01 X-48.3652 Y-25.3273 
G01 X-48.3340 Y-25.2979 
G01 X-48.3188 Y-25.2611 
G01 X-48.3188 Y-22.9989 
G01 X-48.3340 Y-22.9621 
G00 Z1.0000 
G00 X-51.1121 Y-22.9621 
G01 Z-0.0800 F50.00 
G01 X-51.1402 Y-22.9340 F100.00 
G01 X-51.1770 Y-22.9187 
G01 X-53.2011 Y-22.9187 
G01 X-53.2379 Y-22.9340 
G01 X-53.2660 Y-22.9621 
G01 X-53.2812 Y-22.9989 
G01 X-53.2812 Y-25.2611 
G01 X-53.2660 Y-25.2979 
G01 X-53.2379 Y-25.3260 
G01 X-53.2011 Y-25.3412 
G01 X-52.5764 Y-25.3412 
G01 X-52.5764 Y-30.3800 
G01 X-52.7249 Y-30.3800 
G01 X-52.7616 Y-30.3952 
G01 X-52.7898 Y-30.4234 
G01 X-52.8050 Y-30.4601 
G01 X-52.8050 Y-32.4049 
G01 X-52.7898 Y-32.4416 
G01 X-52.7616 Y-32.4698 
G01 X-52.7249 Y-32.4850 
G01 X-50.7801 Y-32.4850 
G01 X-50.7434 Y-32.4698 
G01 X-50.7152 Y-32.4416 
G01 X-50.7000 Y-32.4049 
G01 X-50.7000 Y-30.4601 
G01 X-50.7152 Y-30.4234 
G01 X-50.7434 Y-30.3952 
G01 X-50.7801 Y-30.3800 
G01 X-51.5636 Y-30.3800 
G01 X-51.5636 Y-25.3412 
G01 X-51.1770 Y-25.3412 
G01 X-51.1402 Y-25.3260 
G01 X-51.1121 Y-25.2979 
G01 X-51.0969 Y-25.2611 
G01 X-51.0969 Y-24.3072 
G01 X-51.0810 Y-24.2274 
G01 X-51.0810 Y-24.0326 
G01 X-51.0969 Y-23.9528 
G01 X-51.0969 Y-22.9989 
G01 X-51.1121 Y-22.9621 
G00 Z1.0000 
G00 X-51.0524 Y-21.7592 
G01 Z-0.0800 F50.00 
G01 X-51.0524 Y-25.7869 F100.00 
G01 X-51.0672 Y-25.8068 
G01 X-51.0966 Y-25.8810 
G01 X-51.1058 Y-25.9603 
G01 X-51.0941 Y-26.0393 
G01 X-49.9693 Y-28.6406 
G01 X-50.0019 Y-28.6970 
G01 X-50.0364 Y-28.8258 
G01 X-50.0364 Y-32.7612 
G01 X-50.5024 Y-32.7612 
G01 X-50.5391 Y-32.7765 
G01 X-50.5673 Y-32.8046 
G01 X-50.5825 Y-32.8414 
G01 X-50.5825 Y-34.6274 
G01 X-50.5673 Y-34.6641 
G01 X-50.5391 Y-34.6923 
G01 X-50.5024 Y-34.7075 
G01 X-49.6719 Y-34.7075 
G01 X-49.6392 Y-34.7140 
G01 X-49.4808 Y-34.7140 
G01 X-49.4481 Y-34.7075 
G01 X-48.5576 Y-34.7075 
G01 X-48.5209 Y-34.6923 
G01 X-48.4927 Y-34.6641 
G01 X-48.4775 Y-34.6274 
G01 X-48.4775 Y-32.8414 
G01 X-48.4927 Y-32.8046 
G01 X-48.5209 Y-32.7765 
G01 X-48.5576 Y-32.7612 
G01 X-49.0236 Y-32.7612 
G01 X-49.0236 Y-28.8258 
G01 X-49.0581 Y-28.6970 
G01 X-49.1248 Y-28.5816 
G01 X-49.2191 Y-28.4873 
G01 X-49.3345 Y-28.4206 
G01 X-49.4128 Y-28.3996 
G01 X-50.5376 Y-25.7986 
G01 X-50.5476 Y-25.7860 
G01 X-50.5476 Y-21.7592 
G01 X-50.5175 Y-21.7070 
G01 X-50.4968 Y-21.6299 
G01 X-50.4968 Y-15.9057 
G01 X-50.4968 Y-15.8659 
G01 X-50.4968 Y-15.8351 
G01 X-50.4997 Y-15.8170 
G01 X-50.5095 Y-15.7877 
G01 X-50.5175 Y-15.7580 
G01 X-51.1318 Y-13.9208 
G01 X-51.1318 Y-7.6478 
G01 X-51.1296 Y-7.6358 
G01 X-51.1318 Y-7.6080 
G01 X-51.1318 Y-7.5801 
G01 X-51.1350 Y-7.5683 
G01 X-51.1359 Y-7.5562 
G01 X-51.1452 Y-7.5299 
G01 X-51.1525 Y-7.5030 
G01 X-51.1585 Y-7.4924 
G01 X-51.1626 Y-7.4810 
G01 X-51.1784 Y-7.4580 
G01 X-51.1924 Y-7.4338 
G01 X-51.2079 Y-7.4152 
G01 X-51.2291 Y-7.3971 
G01 X-51.2488 Y-7.3774 
G01 X-51.2594 Y-7.3713 
G01 X-53.8306 Y-5.1782 
G01 X-53.8306 Y-2.7967 
G01 X-52.7843 Y-2.2082 
G01 X-42.9047 Y-2.2082 
G01 X-42.7908 Y-2.5987 
G01 X-43.0411 Y-2.5987 
G01 X-43.0779 Y-2.6140 
G01 X-43.1060 Y-2.6421 
G01 X-43.1212 Y-2.6789 
G01 X-43.1212 Y-4.9411 
G01 X-43.1060 Y-4.9779 
G01 X-43.0779 Y-5.0060 
G01 X-43.0411 Y-5.0212 
G01 X-40.7789 Y-5.0212 
G01 X-40.7421 Y-5.0060 
G01 X-40.7140 Y-4.9779 
G01 X-40.6987 Y-4.9411 
G01 X-40.6987 Y-2.6789 
G01 X-40.7140 Y-2.6421 
G01 X-40.7421 Y-2.6140 
G01 X-40.7789 Y-2.5987 
G01 X-41.7358 Y-2.5987 
G01 X-41.9981 Y-1.6992 
G01 X-42.0673 Y-1.5852 
G01 X-42.1637 Y-1.4930 
G01 X-42.2806 Y-1.4289 
G01 X-42.4101 Y-1.3973 
G01 X-42.5434 Y-1.4002 
G01 X-42.6714 Y-1.4375 
G01 X-42.7854 Y-1.5067 
G01 X-42.8764 Y-1.6018 
G01 X-52.8620 Y-1.6018 
G01 X-52.9003 Y-1.6014 
G01 X-52.9406 Y-1.6117 
G01 X-52.9776 Y-1.6212 
G01 X-53.0139 Y-1.6416 
G01 X-54.2491 Y-2.3364 
G01 X-54.2838 Y-2.3559 
G01 X-54.3172 Y-2.3747 
G01 X-54.3470 Y-2.4038 
G01 X-54.3743 Y-2.4305 
G01 X-54.3955 Y-2.4663 
G01 X-54.4150 Y-2.4992 
G01 X-54.4261 Y-2.5391 
G01 X-54.4365 Y-2.5761 
G01 X-54.4369 Y-2.6177 
G01 X-54.4374 Y-2.6559 
G01 X-54.4369 Y-5.2904 
G01 X-54.4392 Y-5.3023 
G01 X-54.4369 Y-5.3301 
G01 X-54.4369 Y-5.3580 
G01 X-54.4338 Y-5.3698 
G01 X-54.4328 Y-5.3819 
G01 X-54.4235 Y-5.4082 
G01 X-54.4163 Y-5.4352 
G01 X-54.4102 Y-5.4457 
G01 X-54.4061 Y-5.4571 
G01 X-54.3903 Y-5.4801 
G01 X-54.3764 Y-5.5043 
G01 X-54.3609 Y-5.5229 
G01 X-54.3397 Y-5.5410 
G01 X-54.3199 Y-5.5607 
G01 X-54.3094 Y-5.5668 
G01 X-51.7382 Y-7.7599 
G01 X-51.7382 Y-13.9393 
G01 X-51.7382 Y-13.9791 
G01 X-51.7382 Y-14.0099 
G01 X-51.7353 Y-14.0280 
G01 X-51.7255 Y-14.0572 
G01 X-51.7175 Y-14.0870 
G01 X-51.1032 Y-15.9242 
G01 X-51.1032 Y-21.6299 
G01 X-51.0825 Y-21.7070 
G01 X-51.0524 Y-21.7592 
G00 Z1.0000 
G00 X-45.6165 Y-20.4630 
G01 Z-0.0800 F50.00 
G01 X-45.5455 Y-20.5340 F100.00 
G01 X-45.4527 Y-20.5724 
G01 X-25.6673 Y-20.5724 
G01 X-25.5745 Y-20.5340 
G01 X-25.5035 Y-20.4630 
G01 X-25.4651 Y-20.3702 
G01 X-25.4651 Y-20.2698 
G01 X-25.5035 Y-20.1770 
G01 X-25.5745 Y-20.1060 
G01 X-25.6673 Y-20.0676 
G01 X-45.4527 Y-20.0676 
G01 X-45.5455 Y-20.1060 
G01 X-45.6165 Y-20.1770 
G01 X-45.6549 Y-20.2698 
G01 X-45.6549 Y-20.3702 
G01 X-45.6165 Y-20.4630 
G00 Z1.0000 
G00 X-45.1801 Y-17.4300 
G01 Z-0.0800 F50.00 
G01 X-45.1434 Y-17.4148 F100.00 
G01 X-45.1152 Y-17.3866 
G01 X-45.1000 Y-17.3499 
G01 X-45.1000 Y-16.4101 
G01 X-45.1152 Y-16.3734 
G01 X-45.1434 Y-16.3452 
G01 X-45.1801 Y-16.3300 
G01 X-47.4199 Y-16.3300 
G01 X-47.4566 Y-16.3452 
G01 X-47.4848 Y-16.3734 
G01 X-47.5000 Y-16.4101 
G01 X-47.5000 Y-17.3499 
G01 X-47.4848 Y-17.3866 
G01 X-47.4566 Y-17.4148 
G01 X-47.4199 Y-17.4300 
G01 X-45.1801 Y-17.4300 
G00 Z1.0000 
G00 X-45.1801 Y-16.3300 
G01 Z-0.0800 F50.00 
G01 X-45.1434 Y-16.3148 F100.00 
G01 X-45.1152 Y-16.2866 
G01 X-45.1000 Y-16.2499 
G01 X-45.1000 Y-15.3101 
G01 X-45.1152 Y-15.2734 
G01 X-45.1434 Y-15.2452 
G01 X-45.1801 Y-15.2300 
G01 X-47.4199 Y-15.2300 
G01 X-47.4566 Y-15.2452 
G01 X-47.4848 Y-15.2734 
G01 X-47.5000 Y-15.3101 
G01 X-47.5000 Y-15.4502 
G01 X-50.1793 Y-13.1939 
G01 X-50.1793 Y-7.3163 
G01 X-50.1769 Y-7.2902 
G01 X-50.1793 Y-7.2765 
G01 X-50.1793 Y-7.2626 
G01 X-50.1861 Y-7.2373 
G01 X-50.1905 Y-7.2115 
G01 X-50.1964 Y-7.1989 
G01 X-50.2000 Y-7.1855 
G01 X-50.2131 Y-7.1628 
G01 X-50.2240 Y-7.1391 
G01 X-50.2329 Y-7.1284 
G01 X-50.2399 Y-7.1163 
G01 X-50.2584 Y-7.0978 
G01 X-51.5773 Y-5.5152 
G01 X-51.5636 Y-5.4642 
G01 X-51.5636 Y-5.0212 
G01 X-50.9389 Y-5.0212 
G01 X-50.9021 Y-5.0060 
G01 X-50.8740 Y-4.9779 
G01 X-50.8588 Y-4.9411 
G01 X-50.8588 Y-2.6789 
G01 X-50.8740 Y-2.6421 
G01 X-50.9021 Y-2.6140 
G01 X-50.9389 Y-2.5987 
G01 X-53.2011 Y-2.5987 
G01 X-53.2379 Y-2.6140 
G01 X-53.2660 Y-2.6421 
G01 X-53.2812 Y-2.6789 
G01 X-53.2812 Y-4.9411 
G01 X-53.2660 Y-4.9779 
G01 X-53.2379 Y-5.0060 
G01 X-53.2011 Y-5.0212 
G01 X-52.5764 Y-5.0212 
G01 X-52.5764 Y-5.4642 
G01 X-52.5419 Y-5.5930 
G01 X-52.4752 Y-5.7084 
G01 X-52.3809 Y-5.8027 
G01 X-52.2655 Y-5.8694 
G01 X-52.1367 Y-5.9039 
G01 X-52.0427 Y-5.9039 
G01 X-50.7857 Y-7.4123 
G01 X-50.7857 Y-13.3082 
G01 X-50.7880 Y-13.3211 
G01 X-50.7857 Y-13.3480 
G01 X-50.7857 Y-13.3749 
G01 X-50.7823 Y-13.3876 
G01 X-50.7812 Y-13.4007 
G01 X-50.7720 Y-13.4260 
G01 X-50.7650 Y-13.4520 
G01 X-50.7585 Y-13.4634 
G01 X-50.7540 Y-13.4757 
G01 X-50.7386 Y-13.4978 
G01 X-50.7251 Y-13.5212 
G01 X-50.7083 Y-13.5412 
G01 X-50.6877 Y-13.5585 
G01 X-50.6687 Y-13.5776 
G01 X-50.6573 Y-13.5842 
G01 X-47.6310 Y-16.1326 
G01 X-47.5587 Y-16.1665 
G01 X-47.5000 Y-16.1770 
G01 X-47.5000 Y-16.2499 
G01 X-47.4848 Y-16.2866 
G01 X-47.4566 Y-16.3148 
G01 X-47.4199 Y-16.3300 
G01 X-45.1801 Y-16.3300 
G00 Z1.0000 
G00 X-45.1801 Y-15.2300 
G01 Z-0.0800 F50.00 
G01 X-45.1434 Y-15.2148 F100.00 
G01 X-45.1152 Y-15.1866 
G01 X-45.1000 Y-15.1499 
G01 X-45.1000 Y-14.2101 
G01 X-45.1152 Y-14.1734 
G01 X-45.1434 Y-14.1452 
G01 X-45.1801 Y-14.1300 
G01 X-47.4199 Y-14.1300 
G01 X-47.4566 Y-14.1452 
G01 X-47.4848 Y-14.1734 
G01 X-49.2268 Y-12.5672 
G01 X-49.2268 Y-5.8072 
G01 X-49.1248 Y-5.7084 
G01 X-49.0581 Y-5.5930 
G01 X-49.0236 Y-5.4642 
G01 X-49.0236 Y-5.0212 
G01 X-48.3989 Y-5.0212 
G01 X-48.3621 Y-5.0060 
G01 X-48.3340 Y-4.9779 
G01 X-48.3188 Y-4.9411 
G01 X-48.3188 Y-2.6789 
G01 X-48.3340 Y-2.6421 
G01 X-48.3621 Y-2.6140 
G01 X-48.3989 Y-2.5987 
G01 X-50.6611 Y-2.5987 
G01 X-50.6979 Y-2.6140 
G01 X-50.7260 Y-2.6421 
G01 X-50.7412 Y-2.6789 
G01 X-50.7412 Y-4.9411 
G01 X-50.7260 Y-4.9779 
G01 X-50.6979 Y-5.0060 
G01 X-50.6611 Y-5.0212 
G01 X-50.0364 Y-5.0212 
G01 X-50.0364 Y-5.4642 
G01 X-50.0019 Y-5.5930 
G01 X-49.9352 Y-5.7084 
G01 X-49.8409 Y-5.8027 
G01 X-49.8332 Y-12.6662 
G01 X-49.8332 Y-12.7061 
G01 X-49.8332 Y-12.7399 
G01 X-49.8314 Y-12.7520 
G01 X-49.8213 Y-12.7843 
G01 X-49.8125 Y-12.8170 
G01 X-49.8076 Y-12.8282 
G01 X-49.7895 Y-12.8568 
G01 X-49.7726 Y-12.8862 
G01 X-49.7401 Y-12.9187 
G01 X-49.7162 Y-12.9426 
G01 X-47.6426 Y-14.8549 
G01 X-47.5719 Y-14.8920 
G01 X-47.5000 Y-14.9082 
G01 X-47.5000 Y-15.1499 
G01 X-47.4848 Y-15.1866 
G01 X-47.4566 Y-15.2148 
G01 X-47.4199 Y-15.2300 
G01 X-45.1801 Y-15.2300 
G00 Z1.0000 
G00 X-45.1801 Y-14.1300 
G01 Z-0.0800 F50.00 
G01 X-45.1434 Y-14.1148 F100.00 
G01 X-45.1217 Y-14.1244 
G01 X-44.9929 Y-14.1589 
G01 X-27.9673 Y-14.1589 
G01 X-27.9281 Y-14.1631 
G01 X-27.9009 Y-14.1589 
G01 X-27.8733 Y-14.1589 
G01 X-27.8353 Y-14.1487 
G01 X-27.7963 Y-14.1426 
G01 X-27.7711 Y-14.1315 
G01 X-27.7445 Y-14.1244 
G01 X-27.7104 Y-14.1047 
G01 X-27.6744 Y-14.0887 
G01 X-27.6529 Y-14.0715 
G01 X-27.6291 Y-14.0577 
G01 X-27.6012 Y-14.0299 
G01 X-27.5705 Y-14.0051 
G01 X-27.5542 Y-13.9829 
G01 X-27.5348 Y-13.9634 
G01 X-27.5151 Y-13.9293 
G01 X-27.4918 Y-13.8975 
G01 X-27.4819 Y-13.8718 
G01 X-27.4681 Y-13.8480 
G01 X-27.4579 Y-13.8099 
G01 X-24.0559 Y-5.0212 
G01 X-22.9989 Y-5.0212 
G01 X-22.9621 Y-5.0060 
G01 X-22.9340 Y-4.9779 
G01 X-22.9187 Y-4.9411 
G01 X-22.9187 Y-2.6789 
G01 X-22.9340 Y-2.6421 
G01 X-22.9621 Y-2.6140 
G01 X-22.9989 Y-2.5987 
G01 X-25.2611 Y-2.5987 
G01 X-25.2979 Y-2.6140 
G01 X-25.3260 Y-2.6421 
G01 X-25.3412 Y-2.6789 
G01 X-25.3412 Y-4.9411 
G01 X-25.3260 Y-4.9779 
G01 X-25.2979 Y-5.0060 
G01 X-25.2611 Y-5.0212 
G01 X-25.1419 Y-5.0212 
G01 X-28.2870 Y-13.1461 
G01 X-44.9929 Y-13.1461 
G01 X-45.1000 Y-13.1748 
G01 X-45.1000 Y-13.1101 
G01 X-45.1152 Y-13.0734 
G01 X-45.1434 Y-13.0452 
G01 X-45.1801 Y-13.0300 
G01 X-47.4199 Y-13.0300 
G01 X-47.4566 Y-13.0452 
G01 X-47.4848 Y-13.0734 
G01 X-47.5000 Y-13.1101 
G01 X-47.5000 Y-14.0499 
G01 X-47.4848 Y-14.0866 
G01 X-47.4566 Y-14.1148 
G01 X-47.4199 Y-14.1300 
G01 X-45.1801 Y-14.1300 
G00 Z1.0000 
G00 X-45.1801 Y-13.0300 
G01 Z-0.0800 F50.00 
G01 X-45.1434 Y-13.0148 F100.00 
G01 X-45.1152 Y-12.9866 
G01 X-45.1000 Y-12.9499 
G01 X-45.1000 Y-12.0101 
G01 X-45.1152 Y-11.9734 
G01 X-45.1434 Y-11.9452 
G01 X-45.1801 Y-11.9300 
G01 X-47.4199 Y-11.9300 
G01 X-47.4566 Y-11.9452 
G01 X-47.4848 Y-11.9734 
G01 X-47.5000 Y-12.0101 
G01 X-47.5000 Y-12.0698 
G01 X-48.1155 Y-11.7278 
G01 X-48.1155 Y-5.7637 
G01 X-47.2585 Y-5.4303 
G01 X-47.1855 Y-5.4725 
G01 X-47.0567 Y-5.5070 
G01 X-46.9233 Y-5.5070 
G01 X-46.7945 Y-5.4725 
G01 X-46.6791 Y-5.4058 
G01 X-46.5848 Y-5.3116 
G01 X-46.5181 Y-5.1961 
G01 X-46.4836 Y-5.0673 
G01 X-46.4836 Y-5.0212 
G01 X-45.8589 Y-5.0212 
G01 X-45.8221 Y-5.0060 
G01 X-45.7940 Y-4.9779 
G01 X-45.7788 Y-4.9411 
G01 X-45.7788 Y-2.6789 
G01 X-45.7940 Y-2.6421 
G01 X-45.8221 Y-2.6140 
G01 X-45.8589 Y-2.5987 
G01 X-48.1211 Y-2.5987 
G01 X-48.1579 Y-2.6140 
G01 X-48.1860 Y-2.6421 
G01 X-48.2012 Y-2.6789 
G01 X-48.2012 Y-4.9411 
G01 X-48.1860 Y-4.9779 
G01 X-48.1579 Y-5.0060 
G01 X-48.1211 Y-5.0212 
G01 X-47.8796 Y-5.0212 
G01 X-48.5132 Y-5.2677 
G01 X-48.5358 Y-5.2737 
G01 X-48.5503 Y-5.2821 
G01 X-48.5658 Y-5.2881 
G01 X-48.5847 Y-5.3019 
G01 X-48.6049 Y-5.3136 
G01 X-48.6168 Y-5.3255 
G01 X-48.6302 Y-5.3353 
G01 X-48.6448 Y-5.3535 
G01 X-48.6614 Y-5.3701 
G01 X-48.6697 Y-5.3846 
G01 X-48.6802 Y-5.3976 
G01 X-48.6896 Y-5.4190 
G01 X-48.7013 Y-5.4392 
G01 X-48.7056 Y-5.4554 
G01 X-48.7123 Y-5.4707 
G01 X-48.7159 Y-5.4938 
G01 X-48.7219 Y-5.5163 
G01 X-48.7219 Y-5.5331 
G01 X-48.7245 Y-5.5496 
G01 X-48.7219 Y-5.5728 
G01 X-48.7219 Y-11.8689 
G01 X-48.7219 Y-11.9089 
G01 X-48.7219 Y-11.9462 
G01 X-48.7109 Y-11.9872 
G01 X-48.7013 Y-12.0233 
G01 X-48.6801 Y-12.0600 
G01 X-48.6614 Y-12.0924 
G01 X-48.6315 Y-12.1223 
G01 X-48.6049 Y-12.1489 
G01 X-48.5682 Y-12.1701 
G01 X-48.5358 Y-12.1888 
G01 X-47.5000 Y-12.7635 
G01 X-47.5000 Y-12.9499 
G01 X-47.4848 Y-12.9866 
G01 X-47.4566 Y-13.0148 
G01 X-47.4199 Y-13.0300 
G01 X-45.1801 Y-13.0300 
G00 Z1.0000 
G00 X-45.1801 Y-10.8300 
G01 Z-0.0800 F50.00 
G01 X-45.1434 Y-10.8148 F100.00 
G01 X-45.1152 Y-10.7866 
G01 X-45.1000 Y-10.7499 
G01 X-45.1000 Y-10.4632 
G01 X-44.8597 Y-10.4632 
G01 X-44.7609 Y-10.5652 
G01 X-44.6455 Y-10.6319 
G01 X-44.5167 Y-10.6664 
G01 X-44.3833 Y-10.6664 
G01 X-44.2545 Y-10.6319 
G01 X-44.1391 Y-10.5652 
G01 X-44.0448 Y-10.4709 
G01 X-43.9781 Y-10.3555 
G01 X-43.9436 Y-10.2267 
G01 X-43.9436 Y-5.0212 
G01 X-43.3189 Y-5.0212 
G01 X-43.2821 Y-5.0060 
G01 X-43.2540 Y-4.9779 
G01 X-43.2388 Y-4.9411 
G01 X-43.2388 Y-2.6789 
G01 X-43.2540 Y-2.6421 
G01 X-43.2821 Y-2.6140 
G01 X-43.3189 Y-2.5987 
G01 X-45.5811 Y-2.5987 
G01 X-45.6179 Y-2.6140 
G01 X-45.6460 Y-2.6421 
G01 X-45.6612 Y-2.6789 
G01 X-45.6612 Y-4.9411 
G01 X-45.6460 Y-4.9779 
G01 X-45.6179 Y-5.0060 
G01 X-45.5811 Y-5.0212 
G01 X-44.9564 Y-5.0212 
G01 X-44.9564 Y-9.8568 
G01 X-45.1000 Y-9.8568 
G01 X-45.1000 Y-9.8101 
G01 X-45.1152 Y-9.7734 
G01 X-45.1434 Y-9.7452 
G01 X-45.1801 Y-9.7300 
G01 X-47.4199 Y-9.7300 
G01 X-47.4566 Y-9.7452 
G01 X-47.4848 Y-9.7734 
G01 X-47.5000 Y-9.8101 
G01 X-47.5000 Y-10.7499 
G01 X-47.4848 Y-10.7866 
G01 X-47.4566 Y-10.8148 
G01 X-47.4199 Y-10.8300 
G01 X-45.1801 Y-10.8300 
G00 Z1.0000 
G00 X-45.1801 Y-9.7300 
G01 Z-0.0800 F50.00 
G01 X-45.1434 Y-9.7148 F100.00 
G01 X-45.1152 Y-9.6866 
G01 X-45.1000 Y-9.6499 
G01 X-45.1000 Y-8.7101 
G01 X-45.1152 Y-8.6734 
G01 X-45.1434 Y-8.6452 
G01 X-45.1801 Y-8.6300 
G01 X-47.4199 Y-8.6300 
G01 X-47.4566 Y-8.6452 
G01 X-47.4848 Y-8.6734 
G01 X-47.5000 Y-8.7101 
G01 X-47.5000 Y-9.6499 
G01 X-47.4848 Y-9.6866 
G01 X-47.4566 Y-9.7148 
G01 X-47.4199 Y-9.7300 
G01 X-45.1801 Y-9.7300 
G00 Z1.0000 
G00 X-45.1801 Y-8.6300 
G01 Z-0.0800 F50.00 
G01 X-45.1434 Y-8.6148 F100.00 
G01 X-45.1152 Y-8.5866 
G01 X-45.1000 Y-8.5499 
G01 X-45.1000 Y-7.6101 
G01 X-45.1152 Y-7.5734 
G01 X-45.1434 Y-7.5452 
G01 X-45.1801 Y-7.5300 
G01 X-47.4199 Y-7.5300 
G01 X-47.4566 Y-7.5452 
G01 X-47.4848 Y-7.5734 
G01 X-47.5000 Y-7.6101 
G01 X-47.5000 Y-8.5499 
G01 X-47.4848 Y-8.5866 
G01 X-47.4566 Y-8.6148 
G01 X-47.4199 Y-8.6300 
G01 X-45.1801 Y-8.6300 
G00 Z1.0000 
G00 X-46.3934 Y-7.4898 
G01 Z-0.0800 F50.00 
G01 X-46.3652 Y-7.4616 F100.00 
G01 X-46.3500 Y-7.4249 
G01 X-46.3500 Y-5.7851 
G01 X-46.3652 Y-5.7484 
G01 X-46.3934 Y-5.7202 
G01 X-46.4301 Y-5.7050 
G01 X-47.8699 Y-5.7050 
G01 X-47.9066 Y-5.7202 
G01 X-47.9348 Y-5.7484 
G01 X-47.9500 Y-5.7851 
G01 X-47.9500 Y-7.4249 
G01 X-47.9348 Y-7.4616 
G01 X-47.9066 Y-7.4898 
G01 X-47.8699 Y-7.5050 
G01 X-46.4301 Y-7.5050 
G01 X-46.3934 Y-7.4898 
G00 Z1.0000 
G00 X-40.5660 Y-4.9779 
G01 Z-0.0800 F50.00 
G01 X-40.5379 Y-5.0060 F100.00 
G01 X-40.5011 Y-5.0212 
G01 X-38.2389 Y-5.0212 
G01 X-38.2021 Y-5.0060 
G01 X-38.1740 Y-4.9779 
G01 X-38.1587 Y-4.9411 
G01 X-38.1587 Y-2.6789 
G01 X-38.1740 Y-2.6421 
G01 X-38.2021 Y-2.6140 
G01 X-38.2389 Y-2.5987 
G01 X-40.5011 Y-2.5987 
G01 X-40.5379 Y-2.6140 
G01 X-40.5660 Y-2.6421 
G01 X-40.5812 Y-2.6789 
G01 X-40.5812 Y-4.9411 
G01 X-40.5660 Y-4.9779 
G00 Z1.0000 
G00 X-38.0260 Y-4.9779 
G01 Z-0.0800 F50.00 
G01 X-37.9979 Y-5.0060 F100.00 
G01 X-37.9611 Y-5.0212 
G01 X-35.6989 Y-5.0212 
G01 X-35.6621 Y-5.0060 
G01 X-35.6340 Y-4.9779 
G01 X-35.6187 Y-4.9411 
G01 X-35.6187 Y-2.6789 
G01 X-35.6340 Y-2.6421 
G01 X-35.6621 Y-2.6140 
G01 X-35.6989 Y-2.5987 
G01 X-37.9611 Y-2.5987 
G01 X-37.9979 Y-2.6140 
G01 X-38.0260 Y-2.6421 
G01 X-38.0412 Y-2.6789 
G01 X-38.0412 Y-4.9411 
G01 X-38.0260 Y-4.9779 
G00 Z1.0000 
G00 X-35.4860 Y-4.9779 
G01 Z-0.0800 F50.00 
G01 X-35.4579 Y-5.0060 F100.00 
G01 X-35.4211 Y-5.0212 
G01 X-33.1589 Y-5.0212 
G01 X-33.1221 Y-5.0060 
G01 X-33.0940 Y-4.9779 
G01 X-33.0787 Y-4.9411 
G01 X-33.0787 Y-2.6789 
G01 X-33.0940 Y-2.6421 
G01 X-33.1221 Y-2.6140 
G01 X-33.1589 Y-2.5987 
G01 X-35.4211 Y-2.5987 
G01 X-35.4579 Y-2.6140 
G01 X-35.4860 Y-2.6421 
G01 X-35.5012 Y-2.6789 
G01 X-35.5012 Y-4.9411 
G01 X-35.4860 Y-4.9779 
G00 Z1.0000 
G00 X-32.9460 Y-4.9779 
G01 Z-0.0800 F50.00 
G01 X-32.9179 Y-5.0060 F100.00 
G01 X-32.8811 Y-5.0212 
G01 X-30.6189 Y-5.0212 
G01 X-30.5821 Y-5.0060 
G01 X-30.5540 Y-4.9779 
G01 X-30.5388 Y-4.9411 
G01 X-30.5388 Y-2.6789 
G01 X-30.5540 Y-2.6421 
G01 X-30.5821 Y-2.6140 
G01 X-30.6189 Y-2.5987 
G01 X-32.8811 Y-2.5987 
G01 X-32.9179 Y-2.6140 
G01 X-32.9460 Y-2.6421 
G01 X-32.9612 Y-2.6789 
G01 X-32.9612 Y-4.9411 
G01 X-32.9460 Y-4.9779 
G00 Z1.0000 
G00 X-30.4060 Y-4.9779 
G01 Z-0.0800 F50.00 
G01 X-30.3779 Y-5.0060 F100.00 
G01 X-30.3411 Y-5.0212 
G01 X-28.0789 Y-5.0212 
G01 X-28.0421 Y-5.0060 
G01 X-28.0140 Y-4.9779 
G01 X-27.9988 Y-4.9411 
G01 X-27.9988 Y-2.6789 
G01 X-28.0140 Y-2.6421 
G01 X-28.0421 Y-2.6140 
G01 X-28.0789 Y-2.5987 
G01 X-30.3411 Y-2.5987 
G01 X-30.3779 Y-2.6140 
G01 X-30.4060 Y-2.6421 
G01 X-30.4212 Y-2.6789 
G01 X-30.4212 Y-4.9411 
G01 X-30.4060 Y-4.9779 
G00 Z1.0000 
G00 X-22.7860 Y-4.9779 
G01 Z-0.0800 F50.00 
G01 X-22.7579 Y-5.0060 F100.00 
G01 X-22.7211 Y-5.0212 
G01 X-20.4589 Y-5.0212 
G01 X-20.4221 Y-5.0060 
G01 X-20.3940 Y-4.9779 
G01 X-20.3788 Y-4.9411 
G01 X-20.3788 Y-2.6789 
G01 X-20.3940 Y-2.6421 
G01 X-20.4221 Y-2.6140 
G01 X-20.4589 Y-2.5987 
G01 X-22.7211 Y-2.5987 
G01 X-22.7579 Y-2.6140 
G01 X-22.7860 Y-2.6421 
G01 X-22.8012 Y-2.6789 
G01 X-22.8012 Y-4.9411 
G01 X-22.7860 Y-4.9779 
G00 Z1.0000 
G00 X-22.3639 Y-30.2213 
G01 Z-0.0800 F50.00 
G01 X-24.1499 Y-30.2213 F100.00 
G01 X-24.1866 Y-30.2365 
G01 X-24.2148 Y-30.2646 
G01 X-24.2300 Y-30.3014 
G01 X-24.2300 Y-32.4049 
G01 X-24.2148 Y-32.4416 
G01 X-24.1866 Y-32.4698 
G01 X-24.1499 Y-32.4850 
G01 X-22.3639 Y-32.4850 
G01 X-22.3271 Y-32.4698 
G01 X-22.2990 Y-32.4416 
G01 X-22.2838 Y-32.4049 
G01 X-22.2838 Y-30.3014 
G01 X-22.2990 Y-30.2646 
G01 X-22.3271 Y-30.2365 
G01 X-22.3639 Y-30.2213 
G00 Z1.0000 
G00 X-21.1302 Y-35.5301 
G01 Z-0.0800 F50.00 
G01 X-21.2999 Y-35.6998 F100.00 
G01 X-21.4461 Y-35.8903 
G01 X-21.5661 Y-36.0982 
G01 X-21.6580 Y-36.3200 
G01 X-21.7202 Y-36.5519 
G01 X-21.7515 Y-36.7900 
G01 X-21.7515 Y-37.0300 
G01 X-21.7202 Y-37.2681 
G01 X-21.6580 Y-37.5000 
G01 X-21.5661 Y-37.7218 
G01 X-21.4461 Y-37.9297 
G01 X-21.2999 Y-38.1202 
G01 X-21.1302 Y-38.2899 
G01 X-20.9397 Y-38.4361 
G01 X-20.7318 Y-38.5561 
G01 X-20.5100 Y-38.6480 
G01 X-20.2781 Y-38.7102 
G01 X-20.0400 Y-38.7415 
G01 X-19.8000 Y-38.7415 
G01 X-19.5619 Y-38.7102 
G01 X-19.3300 Y-38.6480 
G01 X-19.1082 Y-38.5561 
G01 X-18.9003 Y-38.4361 
G01 X-18.7098 Y-38.2899 
G01 X-18.5401 Y-38.1202 
G01 X-18.3939 Y-37.9297 
G01 X-18.2739 Y-37.7218 
G01 X-18.1820 Y-37.5000 
G01 X-18.1198 Y-37.2681 
G01 X-18.0885 Y-37.0300 
G01 X-18.0885 Y-36.7900 
G01 X-18.1198 Y-36.5519 
G01 X-18.1820 Y-36.3200 
G01 X-18.2739 Y-36.0982 
G01 X-18.3939 Y-35.8903 
G01 X-18.5401 Y-35.6998 
G01 X-18.7098 Y-35.5301 
G01 X-18.9003 Y-35.3839 
G01 X-19.1082 Y-35.2639 
G01 X-19.3300 Y-35.1720 
G01 X-19.5619 Y-35.1098 
G01 X-19.8000 Y-35.0785 
G01 X-20.0400 Y-35.0785 
G01 X-20.2781 Y-35.1098 
G01 X-20.5100 Y-35.1720 
G01 X-20.7318 Y-35.2639 
G01 X-20.9397 Y-35.3839 
G01 X-21.1302 Y-35.5301 
G00 Z1.0000 
G00 X-24.6802 Y-36.1384 
G01 Z-0.0800 F50.00 
G01 X-24.7084 Y-36.1102 F100.00 
G01 X-24.7451 Y-36.0950 
G01 X-25.8043 Y-36.0950 
G01 X-25.8582 Y-36.0639 
G01 X-26.0800 Y-35.9720 
G01 X-26.3119 Y-35.9098 
G01 X-26.5500 Y-35.8785 
G01 X-26.7900 Y-35.8785 
G01 X-27.0281 Y-35.9098 
G01 X-27.2600 Y-35.9720 
G01 X-27.4818 Y-36.0639 
G01 X-27.5357 Y-36.0950 
G01 X-31.6500 Y-36.0950 
G01 X-31.6500 Y-34.9051 
G01 X-31.6652 Y-34.8684 
G01 X-31.6934 Y-34.8402 
G01 X-31.7301 Y-34.8250 
G01 X-34.8250 Y-34.8250 
G01 X-34.8250 Y-31.7301 
G01 X-34.8402 Y-31.6934 
G01 X-34.8684 Y-31.6652 
G01 X-34.9051 Y-31.6500 
G01 X-41.9299 Y-31.6500 
G01 X-41.9666 Y-31.6652 
G01 X-41.9948 Y-31.6934 
G01 X-42.0100 Y-31.7301 
G01 X-42.0100 Y-34.8250 
G01 X-43.1999 Y-34.8250 
G01 X-43.2366 Y-34.8402 
G01 X-43.2648 Y-34.8684 
G01 X-43.2800 Y-34.9051 
G01 X-43.2800 Y-36.4394 
G01 X-43.3102 Y-36.5519 
G01 X-43.3415 Y-36.7900 
G01 X-43.3415 Y-37.0300 
G01 X-43.3102 Y-37.2681 
G01 X-43.2800 Y-37.3806 
G01 X-43.2800 Y-39.3899 
G01 X-43.2648 Y-39.4266 
G01 X-43.2366 Y-39.4548 
G01 X-43.1999 Y-39.4700 
G01 X-27.1780 Y-39.4700 
G01 X-27.0281 Y-39.5102 
G01 X-26.7900 Y-39.5415 
G01 X-26.5500 Y-39.5415 
G01 X-26.3119 Y-39.5102 
G01 X-26.1620 Y-39.4700 
G01 X-24.7451 Y-39.4700 
G01 X-24.7084 Y-39.4548 
G01 X-24.6802 Y-39.4266 
G01 X-24.6650 Y-39.3899 
G01 X-24.6650 Y-36.1751 
G01 X-24.6802 Y-36.1384 
G00 Z1.0000 
G00 X-43.9171 Y-32.4698 
G01 Z-0.0800 F50.00 
G01 X-43.8890 Y-32.4416 F100.00 
G01 X-43.8738 Y-32.4049 
G01 X-43.8738 Y-30.6189 
G01 X-43.8890 Y-30.5821 
G01 X-43.9171 Y-30.5540 
G01 X-43.9539 Y-30.5388 
G01 X-45.7399 Y-30.5388 
G01 X-45.7766 Y-30.5540 
G01 X-45.8048 Y-30.5821 
G01 X-45.8200 Y-30.6189 
G01 X-45.8200 Y-32.4049 
G01 X-45.8048 Y-32.4416 
G01 X-45.7766 Y-32.4698 
G01 X-45.7399 Y-32.4850 
G01 X-43.9539 Y-32.4850 
G01 X-43.9171 Y-32.4698 
G00 Z1.0000 
G00 Z5.0000 
M05
M02
